(Generated by PartKam Version 0.05)

G21 G90 G40

(drill 1)
G0 Z-20
T0 M6
G17
M3
G0 X31.1591 Y13.3658
G1 Z-47.5 F800
G1 Z0 F800

(pocket 2)
G0 Z-20
G0 X31.1592 Y14.1197
G1 Z-37.5 F250
G2 X31.4477 Y14.0623 I0 J-0.7539 F250
G2 X31.6923 Y13.8989 I-0.2885 J-0.6965
G2 X31.8557 Y13.6543 I-0.5331 J-0.5331
G2 X31.9131 Y13.3658 I-0.6966 J-0.2885
G2 X31.8557 Y13.0773 I-0.7539 J0
G2 X31.6923 Y12.8327 I-0.6966 J0.2885
G2 X31.4477 Y12.6692 I-0.5331 J0.5331
G2 X31.1592 Y12.6118 I-0.2885 J0.6965
G2 X30.8706 Y12.6692 I0 J0.754
G2 X30.626 Y12.8327 I0.2885 J0.6966
G2 X30.4626 Y13.0773 I0.5331 J0.5331
G2 X30.4052 Y13.3658 I0.6965 J0.2885
G2 X30.4626 Y13.6543 I0.7539 J0
G2 X30.626 Y13.8989 I0.6965 J-0.2885
G2 X30.8706 Y14.0623 I0.5331 J-0.5331
G2 X31.1592 Y14.1197 I0.2885 J-0.6966
G1 X31.1592 Y15.3197 F250
G2 X31.9069 Y15.171 I0 J-1.9539 F250
G2 X32.5408 Y14.7474 I-0.7477 J-1.8052
G2 X32.9644 Y14.1135 I-1.3816 J-1.3816
G2 X33.1131 Y13.3658 I-1.8052 J-0.7477
G2 X32.9644 Y12.618 I-1.9539 J0
G2 X32.5408 Y11.9841 I-1.8052 J0.7478
G2 X31.9069 Y11.5606 I-1.3817 J1.3817
G2 X31.1592 Y11.4118 I-0.7477 J1.8052
G2 X30.4114 Y11.5606 I0 J1.954
G2 X29.7775 Y11.9841 I0.7477 J1.8052
G2 X29.3539 Y12.618 I1.3816 J1.3817
G2 X29.2052 Y13.3658 I1.8051 J0.7477
G2 X29.3539 Y14.1135 I1.9539 J0
G2 X29.7775 Y14.7474 I1.8052 J-0.7477
G2 X30.4114 Y15.171 I1.3816 J-1.3816
G2 X31.1592 Y15.3197 I0.7478 J-1.8053
G1 X31.1592 Y16.5197 F250
G2 X32.3661 Y16.2796 I0 J-3.1539 F250
G2 X33.3893 Y15.5959 I-1.207 J-2.9139
G2 X34.073 Y14.5727 I-2.2301 J-2.2302
G2 X34.3131 Y13.3658 I-2.9139 J-1.207
G2 X34.073 Y12.1588 I-3.1539 J0
G2 X33.3893 Y11.1356 I-2.9139 J1.207
G2 X32.3661 Y10.4519 I-2.2302 J2.2302
G2 X31.1592 Y10.2118 I-1.2069 J2.9138
G2 X29.9522 Y10.4519 I0 J3.154
G2 X28.929 Y11.1356 I1.207 J2.9139
G2 X28.2453 Y12.1588 I2.2302 J2.2302
G2 X28.0052 Y13.3658 I2.9138 J1.2069
G2 X28.2453 Y14.5727 I3.1539 J0
G2 X28.929 Y15.5959 I2.9138 J-1.2069
G2 X29.9522 Y16.2796 I2.2302 J-2.2302
G2 X31.1592 Y16.5197 I1.207 J-2.9139

(drill 3)
G0 Z-20
G0 X147.1853 Y250.7903
G1 Z-47.5 F800
G1 Z0 F800

(pocket 4)
G0 Z-20
G0 X147.1853 Y251.5442
G1 Z-37.5 F250
G2 X147.4738 Y251.4868 I0 J-0.7539 F250
G2 X147.7184 Y251.3234 I-0.2885 J-0.6965
G2 X147.8819 Y251.0788 I-0.5331 J-0.5331
G2 X147.9392 Y250.7903 I-0.6966 J-0.2885
G2 X147.8819 Y250.5018 I-0.7539 J0
G2 X147.7184 Y250.2572 I-0.6966 J0.2885
G2 X147.4738 Y250.0937 I-0.5331 J0.5331
G2 X147.1853 Y250.0363 I-0.2885 J0.6965
G2 X146.8968 Y250.0937 I0 J0.754
G2 X146.6522 Y250.2572 I0.2885 J0.6966
G2 X146.4887 Y250.5018 I0.5331 J0.5331
G2 X146.4314 Y250.7903 I0.6965 J0.2885
G2 X146.4888 Y251.0788 I0.7539 J0
G2 X146.6522 Y251.3234 I0.6965 J-0.2885
G2 X146.8968 Y251.4868 I0.5331 J-0.5331
G2 X147.1853 Y251.5442 I0.2885 J-0.6966
G1 X147.1853 Y252.7442 F250
G2 X147.9331 Y252.5955 I0 J-1.9539 F250
G2 X148.567 Y252.1719 I-0.7477 J-1.8052
G2 X148.9905 Y251.538 I-1.3816 J-1.3816
G2 X149.1392 Y250.7903 I-1.8052 J-0.7477
G2 X148.9905 Y250.0425 I-1.9539 J0
G2 X148.567 Y249.4086 I-1.8052 J0.7478
G2 X147.933 Y248.9851 I-1.3817 J1.3817
G2 X147.1853 Y248.8363 I-0.7477 J1.8052
G2 X146.4376 Y248.9851 I0 J1.954
G2 X145.8037 Y249.4086 I0.7477 J1.8052
G2 X145.3801 Y250.0425 I1.3816 J1.3817
G2 X145.2314 Y250.7903 I1.8051 J0.7477
G2 X145.3801 Y251.538 I1.9539 J0
G2 X145.8037 Y252.1719 I1.8052 J-0.7477
G2 X146.4376 Y252.5955 I1.3816 J-1.3816
G2 X147.1853 Y252.7442 I0.7478 J-1.8053
G1 X147.1853 Y253.9442 F250
G2 X148.3923 Y253.7041 I0 J-3.1539 F250
G2 X149.4155 Y253.0204 I-1.207 J-2.9139
G2 X150.0992 Y251.9972 I-2.2301 J-2.2302
G2 X150.3392 Y250.7903 I-2.9139 J-1.207
G2 X150.0992 Y249.5833 I-3.1539 J0
G2 X149.4155 Y248.5601 I-2.9139 J1.207
G2 X148.3923 Y247.8764 I-2.2302 J2.2302
G2 X147.1853 Y247.6363 I-1.2069 J2.9138
G2 X145.9784 Y247.8764 I0 J3.154
G2 X144.9551 Y248.5601 I1.207 J2.9139
G2 X144.2714 Y249.5833 I2.2302 J2.2302
G2 X144.0314 Y250.7903 I2.9138 J1.2069
G2 X144.2714 Y251.9972 I3.1539 J0
G2 X144.9551 Y253.0204 I2.9138 J-1.2069
G2 X145.9783 Y253.7041 I2.2302 J-2.2302
G2 X147.1853 Y253.9442 I1.207 J-2.9139

(drill 5)
G0 Z-20
G0 X287.5853 Y250.7903
G1 Z-47.5 F800
G1 Z0 F800

(pocket 6)
G0 Z-20
G0 X286.8888 Y250.5018
G1 Z-37.5 F250
G2 X286.8314 Y250.7903 I0.6965 J0.2885 F250
G2 X286.8888 Y251.0788 I0.754 J0
G2 X287.0522 Y251.3234 I0.6966 J-0.2885
G2 X287.2968 Y251.4868 I0.5331 J-0.5331
G2 X287.5853 Y251.5442 I0.2884 J-0.6963
G2 X287.8737 Y251.4868 I0 J-0.7537
G2 X288.1183 Y251.3234 I-0.2885 J-0.6965
G2 X288.2817 Y251.0788 I-0.5331 J-0.5331
G2 X288.3391 Y250.7903 I-0.6966 J-0.2885
G2 X288.2817 Y250.5018 I-0.7539 J0
G2 X288.1183 Y250.2571 I-0.6966 J0.2885
G2 X287.8737 Y250.0937 I-0.5331 J0.5331
G2 X287.5853 Y250.0363 I-0.2884 J0.6963
G2 X287.2968 Y250.0937 I0 J0.7537
G2 X287.0522 Y250.2571 I0.2885 J0.6966
G2 X286.8888 Y250.5018 I0.5332 J0.5332
G1 X285.7801 Y250.0425 F250
G2 X285.6314 Y250.7903 I1.8052 J0.7477 F250
G2 X285.7801 Y251.538 I1.954 J0
G2 X286.2037 Y252.1719 I1.8052 J-0.7477
G2 X286.8376 Y252.5955 I1.3816 J-1.3816
G2 X287.5853 Y252.7442 I0.7477 J-1.805
G2 X288.3329 Y252.5955 I0 J-1.9537
G2 X288.9668 Y252.1719 I-0.7477 J-1.8052
G2 X289.3904 Y251.538 I-1.3817 J-1.3816
G2 X289.5391 Y250.7903 I-1.8052 J-0.7477
G2 X289.3904 Y250.0425 I-1.9539 J0
G2 X288.9668 Y249.4086 I-1.8053 J0.7478
G2 X288.3329 Y248.9851 I-1.3817 J1.3816
G2 X287.5853 Y248.8363 I-0.7476 J1.8049
G2 X286.8376 Y248.9851 I0 J1.9537
G2 X286.2037 Y249.4086 I0.7478 J1.8052
G2 X285.7801 Y250.0425 I1.3817 J1.3817
G1 X284.6715 Y249.5833 F250
G2 X284.4314 Y250.7903 I2.9138 J1.2069 F250
G2 X284.6715 Y251.9972 I3.154 J0
G2 X285.3552 Y253.0204 I2.9139 J-1.207
G2 X286.3784 Y253.7041 I2.2302 J-2.2301
G2 X287.5853 Y253.9442 I1.2069 J-2.9136
G2 X288.7921 Y253.7041 I0 J-3.1537
G2 X289.8153 Y253.0204 I-1.207 J-2.9138
G2 X290.499 Y251.9972 I-2.2302 J-2.2302
G2 X290.7391 Y250.7903 I-2.9139 J-1.207
G2 X290.499 Y249.5833 I-3.1539 J0
G2 X289.8153 Y248.5601 I-2.9139 J1.207
G2 X288.7921 Y247.8764 I-2.2302 J2.2302
G2 X287.5853 Y247.6363 I-1.2069 J2.9136
G2 X286.3784 Y247.8764 I0 J3.1537
G2 X285.3552 Y248.5601 I1.207 J2.9139
G2 X284.6715 Y249.5833 I2.2302 J2.2302

(drill 7)
G0 Z-20
G0 X427.9853 Y250.7903
G1 Z-47.5 F800
G1 Z0 F800

(pocket 8)
G0 Z-20
G0 X428.2739 Y251.4868
G1 Z-37.5 F250
G2 X428.5185 Y251.3233 I-0.2885 J-0.6966 F250
G2 X428.6819 Y251.0788 I-0.533 J-0.533
G2 X428.7393 Y250.7903 I-0.6965 J-0.2885
G2 X428.6819 Y250.5018 I-0.7538 J0
G2 X428.5185 Y250.2572 I-0.6965 J0.2885
G2 X428.2739 Y250.0938 I-0.5331 J0.5332
G2 X427.9852 Y250.0363 I-0.2887 J0.697
G2 X427.6968 Y250.0937 I0 J0.7537
G2 X427.4522 Y250.2571 I0.2885 J0.6966
G2 X427.2887 Y250.5018 I0.5332 J0.5332
G2 X427.2313 Y250.7903 I0.6965 J0.2885
G2 X427.2887 Y251.0788 I0.754 J0
G2 X427.4522 Y251.3234 I0.6966 J-0.2885
G2 X427.6967 Y251.4868 I0.5331 J-0.5331
G2 X427.9852 Y251.5442 I0.2884 J-0.6963
G2 X428.2739 Y251.4868 I0 J-0.7545
G1 X428.7331 Y252.5954 F250
G2 X429.367 Y252.1719 I-0.7477 J-1.8052 F250
G2 X429.7906 Y251.538 I-1.3815 J-1.3816
G2 X429.9393 Y250.7903 I-1.8052 J-0.7477
G2 X429.7906 Y250.0426 I-1.9538 J0
G2 X429.367 Y249.4087 I-1.8051 J0.7477
G2 X428.7331 Y248.9851 I-1.3817 J1.3817
G2 X427.9852 Y248.8363 I-0.7479 J1.8057
G2 X427.2375 Y248.9851 I0 J1.9537
G2 X426.6036 Y249.4086 I0.7478 J1.8052
G2 X426.1801 Y250.0425 I1.3817 J1.3817
G2 X426.0313 Y250.7903 I1.8052 J0.7477
G2 X426.1801 Y251.538 I1.954 J0
G2 X426.6036 Y252.1719 I1.8052 J-0.7477
G2 X427.2375 Y252.5955 I1.3816 J-1.3816
G2 X427.9852 Y252.7442 I0.7477 J-1.805
G2 X428.7331 Y252.5954 I0 J-1.9545
G1 X429.1923 Y253.7041 F250
G2 X430.2155 Y253.0204 I-1.2069 J-2.9139 F250
G2 X430.8992 Y251.9972 I-2.2301 J-2.2301
G2 X431.1393 Y250.7903 I-2.9138 J-1.207
G2 X430.8992 Y249.5833 I-3.1538 J0
G2 X430.2155 Y248.5601 I-2.9138 J1.207
G2 X429.1923 Y247.8764 I-2.2302 J2.2302
G2 X427.9852 Y247.6363 I-1.2071 J2.9143
G2 X426.7783 Y247.8764 I0 J3.1537
G2 X425.7551 Y248.5601 I1.207 J2.9139
G2 X425.0714 Y249.5833 I2.2302 J2.2302
G2 X424.8313 Y250.7903 I2.9138 J1.2069
G2 X425.0714 Y251.9972 I3.154 J0
G2 X425.7551 Y253.0204 I2.9139 J-1.207
G2 X426.7783 Y253.7041 I2.2302 J-2.2301
G2 X427.9852 Y253.9442 I1.2069 J-2.9136
G2 X429.1923 Y253.7041 I0 J-3.1545

(drill 9)
G0 Z-20
G0 X568.3854 Y250.7903
G1 Z-47.5 F800
G1 Z0 F800

(pocket 10)
G0 Z-20
G0 X568.9184 Y250.2571
G1 Z-37.5 F250
G2 X568.6738 Y250.0937 I-0.5331 J0.5331 F250
G2 X568.3854 Y250.0363 I-0.2884 J0.6963
G2 X568.0969 Y250.0937 I0 J0.7537
G2 X567.8524 Y250.2571 I0.2885 J0.6966
G2 X567.6889 Y250.5018 I0.5332 J0.5332
G2 X567.6315 Y250.7903 I0.6965 J0.2885
G2 X567.6889 Y251.0788 I0.754 J0
G2 X567.8523 Y251.3234 I0.6966 J-0.2885
G2 X568.0969 Y251.4868 I0.5331 J-0.5331
G2 X568.3854 Y251.5442 I0.2884 J-0.6963
G2 X568.6738 Y251.4868 I0 J-0.7537
G2 X568.9184 Y251.3234 I-0.2885 J-0.6965
G2 X569.0818 Y251.0788 I-0.5331 J-0.5331
G2 X569.1392 Y250.7903 I-0.6966 J-0.2885
G2 X569.0818 Y250.5018 I-0.7539 J0
G2 X568.9184 Y250.2571 I-0.6966 J0.2885
G1 X569.7669 Y249.4086 F250
G2 X569.133 Y248.9851 I-1.3817 J1.3816 F250
G2 X568.3854 Y248.8363 I-0.7476 J1.8049
G2 X567.6377 Y248.9851 I0 J1.9537
G2 X567.0038 Y249.4086 I0.7478 J1.8052
G2 X566.5803 Y250.0425 I1.3817 J1.3817
G2 X566.4315 Y250.7903 I1.8052 J0.7477
G2 X566.5803 Y251.538 I1.954 J0
G2 X567.0038 Y252.1719 I1.8052 J-0.7477
G2 X567.6377 Y252.5955 I1.3816 J-1.3816
G2 X568.3854 Y252.7442 I0.7477 J-1.805
G2 X569.133 Y252.5955 I0 J-1.9537
G2 X569.7669 Y252.1719 I-0.7477 J-1.8052
G2 X570.1905 Y251.538 I-1.3817 J-1.3816
G2 X570.3392 Y250.7903 I-1.8052 J-0.7477
G2 X570.1905 Y250.0425 I-1.9539 J0
G2 X569.7669 Y249.4086 I-1.8053 J0.7478
G1 X570.6154 Y248.5601 F250
G2 X569.5922 Y247.8764 I-2.2302 J2.2302 F250
G2 X568.3854 Y247.6363 I-1.2069 J2.9136
G2 X567.1785 Y247.8764 I0 J3.1537
G2 X566.1553 Y248.5601 I1.207 J2.9139
G2 X565.4716 Y249.5833 I2.2302 J2.2302
G2 X565.2315 Y250.7903 I2.9138 J1.2069
G2 X565.4716 Y251.9972 I3.154 J0
G2 X566.1553 Y253.0204 I2.9139 J-1.207
G2 X567.1785 Y253.7041 I2.2302 J-2.2301
G2 X568.3854 Y253.9442 I1.2069 J-2.9136
G2 X569.5923 Y253.7041 I0 J-3.1537
G2 X570.6154 Y253.0204 I-1.207 J-2.9138
G2 X571.2991 Y251.9972 I-2.2302 J-2.2302
G2 X571.5392 Y250.7903 I-2.9139 J-1.207
G2 X571.2991 Y249.5833 I-3.1539 J0
G2 X570.6154 Y248.5601 I-2.9139 J1.207

(drill 11)
G0 Z-20
G0 X683.8512 Y13.3658
G1 Z-47.5 F800
G1 Z0 F800

(pocket 12)
G0 Z-20
G0 X683.8512 Y14.1197
G1 Z-37.5 F250
G2 X684.1397 Y14.0623 I0 J-0.7539 F250
G2 X684.3843 Y13.8989 I-0.2885 J-0.6965
G2 X684.5477 Y13.6543 I-0.5331 J-0.5331
G2 X684.6051 Y13.3658 I-0.6966 J-0.2885
G2 X684.5477 Y13.0773 I-0.7539 J0
G2 X684.3843 Y12.8327 I-0.6966 J0.2885
G2 X684.1397 Y12.6692 I-0.5331 J0.5331
G2 X683.8512 Y12.6118 I-0.2885 J0.6965
G2 X683.5626 Y12.6692 I0 J0.754
G2 X683.318 Y12.8327 I0.2885 J0.6966
G2 X683.1546 Y13.0773 I0.5331 J0.5331
G2 X683.0972 Y13.3658 I0.6965 J0.2885
G2 X683.1546 Y13.6543 I0.7539 J0
G2 X683.318 Y13.8989 I0.6965 J-0.2885
G2 X683.5626 Y14.0623 I0.5331 J-0.5331
G2 X683.8512 Y14.1197 I0.2885 J-0.6966
G1 X683.8512 Y15.3197 F250
G2 X684.5989 Y15.171 I0 J-1.9539 F250
G2 X685.2328 Y14.7474 I-0.7477 J-1.8052
G2 X685.6564 Y14.1135 I-1.3816 J-1.3816
G2 X685.8051 Y13.3658 I-1.8052 J-0.7477
G2 X685.6564 Y12.618 I-1.9539 J0
G2 X685.2328 Y11.9841 I-1.8052 J0.7478
G2 X684.5989 Y11.5606 I-1.3817 J1.3817
G2 X683.8512 Y11.4118 I-0.7477 J1.8052
G2 X683.1034 Y11.5606 I0 J1.954
G2 X682.4695 Y11.9841 I0.7477 J1.8052
G2 X682.0459 Y12.618 I1.3816 J1.3817
G2 X681.8972 Y13.3658 I1.8051 J0.7477
G2 X682.0459 Y14.1135 I1.9539 J0
G2 X682.4695 Y14.7474 I1.8052 J-0.7477
G2 X683.1034 Y15.171 I1.3816 J-1.3816
G2 X683.8512 Y15.3197 I0.7478 J-1.8053
G1 X683.8512 Y16.5197 F250
G2 X685.0581 Y16.2796 I0 J-3.1539 F250
G2 X686.0813 Y15.5959 I-1.207 J-2.9139
G2 X686.765 Y14.5727 I-2.2301 J-2.2302
G2 X687.0051 Y13.3658 I-2.9139 J-1.207
G2 X686.765 Y12.1588 I-3.1539 J0
G2 X686.0813 Y11.1356 I-2.9139 J1.207
G2 X685.0581 Y10.4519 I-2.2302 J2.2302
G2 X683.8512 Y10.2118 I-1.2069 J2.9138
G2 X682.6442 Y10.4519 I0 J3.154
G2 X681.621 Y11.1356 I1.207 J2.9139
G2 X680.9373 Y12.1588 I2.2302 J2.2302
G2 X680.6972 Y13.3658 I2.9138 J1.2069
G2 X680.9373 Y14.5727 I3.1539 J0
G2 X681.621 Y15.5959 I2.9138 J-1.2069
G2 X682.6442 Y16.2796 I2.2302 J-2.2302
G2 X683.8512 Y16.5197 I1.207 J-2.9139

(profile 13)
G0 Z-20
G0 X6.5097 Y5.0147
G1 Z-47.5 F250
G2 X5.0097 Y6.5147 I0 J1.5 F250
G1 X5.0097 Y266.5147
G2 X6.5097 Y268.0147 I1.5 J0
G1 X708.5098 Y268.0147
G2 X710.0098 Y266.5147 I0 J-1.5
G1 X710.0098 Y6.5147
G2 X708.5098 Y5.0147 I-1.5 J0
G1 X6.5097 Y5.0147
G0 Z-20
M5
M30
