(Generated by PartKam Version 0.05)

G21 G90 G40

(profile 2)
G0 Z-20
T0 M6
G17
M3

(drill 20)
G0 Z-20
G0 X104.0059 Y92.6895
G1 Z-47.5 F800
G1 Z-20 F800

G0 X144.8598 Y42.8332
G1 Z-47.5 F250
G2 X141.8598 Y39.8332 I-3 J0 F250
G1 X104.1479 Y39.8332
G2 X103.5869 Y39.8861 I0 J3
G1 X91.7213 Y39.8861
G2 X81.1627 Y41.9803 I0 J27.6639
G2 X72.2475 Y47.9303 I10.4561 J25.3212
G2 X66.2975 Y56.8455 I19.3713 J19.3713
G2 X64.2033 Y67.4041 I25.5696 J10.5587
G1 X64.2033 Y117.9748
G2 X66.2978 Y128.5325 I27.6554 J0
G2 X72.248 Y137.4448 I25.3048 J-10.4519
G2 X81.1618 Y143.3908 I19.3621 J-19.3717
G2 X91.7213 Y145.4841 I10.5595 J-25.5874
G1 X103.5425 Y145.4841
G2 X104.1479 Y145.5458 I0.6054 J-2.9383
G1 X141.8598 Y145.5458
G2 X144.8598 Y142.5458 I0 J-3
G1 X144.8598 Y42.8332

(drill 3)
G0 Z-20
G0 X202.1605 Y53.1997
G1 Z-37.5 F800
G1 Z-20 F800

(drill 4)
G0 Z-20
G0 X214.1605 Y64.8606
G1 Z-37.5 F800
G1 Z-20 F800

(drill 5)
G0 Z-20
G0 X214.1605 Y116.319
G1 Z-37.5 F800
G1 Z-20 F800

(drill 6)
G0 Z-20
G0 X202.1605 Y128.1997
G1 Z-37.5 F800
G1 Z-20 F800

(drill 7)
G0 Z-20
G0 X277.1606 Y128.1997
G1 Z-37.5 F800
G1 Z-20 F800

(drill 8)
G0 Z-20
G0 X265.1605 Y116.319
G1 Z-37.5 F800
G1 Z-20 F800

(drill 9)
G0 Z-20
G0 X265.1605 Y64.8606
G1 Z-37.5 F800
G1 Z-20 F800

(drill 10)
G0 Z-20
G0 X277.1606 Y53.1997
G1 Z-37.5 F800
G1 Z-20 F800

(profile 11)
G0 Z-20
G0 X292.5561 Y40.804
G1 Z-47.5 F250
G2 X289.5561 Y37.804 I-3 J0 F250
G1 X189.7648 Y37.804
G2 X186.7648 Y40.804 I0 J3
G1 X186.7648 Y140.5953
G2 X189.7648 Y143.5953 I3 J0
G1 X289.5561 Y143.5953
G2 X292.5561 Y140.5953 I0 J-3
G1 X292.5561 Y40.804

(profile 12)
G0 Z-20
G0 X34.6882 Y31.5069
G1 Z-47.5 F250
G1 X34.6882 Y153.6903 F250
G1 X328.6887 Y153.6903
G1 X328.6887 Y31.5069
G1 X34.6882 Y31.5069

(drill 21)
G0 Z-20
G0 X615.629 Y91.5772
G1 Z-47.5 F800
G1 Z-20 F800

(profile 13)
G0 Z-20
G0 X574.7752 Y141.4335
G1 Z-47.5 F250
G2 X577.7752 Y144.4335 I3 J0 F250
G1 X615.4872 Y144.4335
G2 X616.0926 Y144.3718 I0 J-3
G1 X627.9137 Y144.3718
G2 X638.4732 Y142.2785 I0 J-27.6808
G2 X647.3871 Y136.3325 I-10.4481 J-25.3175
G2 X653.3372 Y127.4202 I-19.3545 J-19.3641
G2 X655.4318 Y116.8625 I-25.561 J-10.5577
G1 X655.4318 Y66.2918
G2 X653.3375 Y55.7331 I-27.664 J0
G2 X647.3876 Y46.8179 I-25.3212 J10.456
G2 X638.4724 Y40.868 I-19.3712 J19.3711
G2 X627.9137 Y38.7737 I-10.5587 J25.5697
G1 X616.048 Y38.7737
G2 X615.4872 Y38.7208 I-0.5608 J2.9471
G1 X577.7752 Y38.7208
G2 X574.7752 Y41.7208 I0 J3
G1 X574.7752 Y141.4335

(profile 14)
G0 Z-20
G0 X380.5936 Y31.9921
G1 Z-47.5 F250
G1 X380.5936 Y154.1754 F250
G1 X674.5941 Y154.1754
G1 X674.5941 Y31.9921
G1 X380.5936 Y31.9921

(profile 15)
G0 Z-20
G0 X2.9659 Y0.853
G1 Z-47.5 F250
G2 X-0.0341 Y3.853 I0 J3 F250
G1 X-0.0341 Y181.3378
G2 X2.9659 Y184.3378 I3 J0
G1 X705.9673 Y184.3378
G2 X708.9673 Y181.3378 I0 J-3
G1 X708.9673 Y3.853
G2 X705.9673 Y0.853 I-3 J0
G1 X2.9659 Y0.853

G0 Z-20
M5
M30
