(Generated by PartKam Version 0.05)

G21 G90 G40

(drill 1)
G0 Z-20
T0 M6
G17
M3
G0 X11.9798 Y57.8355
G1 Z-47.5 F800
G1 Z0 F800

(pocket 2)
G0 Z-20
G0 X12.2595 Y58.5107
G1 Z-37.5 F250
G2 X12.4966 Y58.3523 I-0.2797 J-0.6752 F250
G2 X12.655 Y58.1152 I-0.5168 J-0.5168
G2 X12.7107 Y57.8356 I-0.6752 J-0.2797
G2 X12.655 Y57.5559 I-0.7309 J0
G2 X12.4966 Y57.3188 I-0.6752 J0.2797
G2 X12.2595 Y57.1603 I-0.5168 J0.5168
G2 X11.9798 Y57.1047 I-0.2797 J0.6752
G2 X11.7001 Y57.1603 I0 J0.7308
G2 X11.4631 Y57.3188 I0.2797 J0.6752
G2 X11.3046 Y57.5559 I0.5168 J0.5168
G2 X11.249 Y57.8356 I0.6753 J0.2797
G2 X11.3046 Y58.1152 I0.7308 J0
G2 X11.463 Y58.3523 I0.6752 J-0.2797
G2 X11.7001 Y58.5107 I0.5168 J-0.5168
G2 X11.9798 Y58.5664 I0.2797 J-0.6752
G2 X12.2595 Y58.5107 I0 J-0.7309
G1 X12.7187 Y59.6194 F250
G2 X13.3451 Y59.2008 I-0.7389 J-1.7839 F250
G2 X13.7637 Y58.5744 I-1.3653 J-1.3653
G2 X13.9107 Y57.8356 I-1.7838 J-0.7389
G2 X13.7637 Y57.0966 I-1.9309 J0
G2 X13.3451 Y56.4702 I-1.7838 J0.7389
G2 X12.7187 Y56.0517 I-1.3653 J1.3653
G2 X11.9798 Y55.9047 I-0.7389 J1.7839
G2 X11.2409 Y56.0517 I0 J1.9308
G2 X10.6145 Y56.4702 I0.7389 J1.7838
G2 X10.196 Y57.0966 I1.3653 J1.3653
G2 X10.049 Y57.8356 I1.7839 J0.7389
G2 X10.196 Y58.5744 I1.9308 J0
G2 X10.6145 Y59.2008 I1.7838 J-0.7389
G2 X11.2409 Y59.6194 I1.3653 J-1.3653
G2 X11.9798 Y59.7664 I0.7389 J-1.7838
G2 X12.7187 Y59.6194 I0 J-1.9309
G1 X13.1779 Y60.728 F250
G2 X14.1937 Y60.0494 I-1.1981 J-2.8925 F250
G2 X14.8723 Y59.0337 I-2.2138 J-2.2138
G2 X15.1107 Y57.8356 I-2.8925 J-1.1981
G2 X14.8723 Y56.6374 I-3.1309 J0
G2 X14.1937 Y55.6217 I-2.8925 J1.1981
G2 X13.1779 Y54.943 I-2.2138 J2.2138
G2 X11.9798 Y54.7047 I-1.1981 J2.8926
G2 X10.7817 Y54.943 I0 J3.1308
G2 X9.766 Y55.6217 I1.1981 J2.8925
G2 X9.0873 Y56.6374 I2.2138 J2.2138
G2 X8.849 Y57.8356 I2.8926 J1.1981
G2 X9.0873 Y59.0337 I3.1308 J0
G2 X9.766 Y60.0494 I2.8925 J-1.1981
G2 X10.7817 Y60.7281 I2.2138 J-2.2138
G2 X11.9798 Y60.9664 I1.1981 J-2.8925
G2 X13.1779 Y60.728 I0 J-3.1309

(drill 3)
G0 Z-20
G0 X183.9251 Y13.9133
G1 Z-47.5 F800
G1 Z0 F800

(pocket 4)
G0 Z-20
G0 X183.2499 Y14.193
G1 Z-37.5 F250
G2 X183.4083 Y14.4301 I0.6752 J-0.2797 F250
G2 X183.6454 Y14.5885 I0.5168 J-0.5168
G2 X183.9251 Y14.6442 I0.2797 J-0.6752
G2 X184.2048 Y14.5885 I0 J-0.7308
G2 X184.4419 Y14.4301 I-0.2797 J-0.6752
G2 X184.6003 Y14.193 I-0.5168 J-0.5168
G2 X184.6559 Y13.9133 I-0.6752 J-0.2797
G2 X184.6003 Y13.6337 I-0.7308 J0
G2 X184.4419 Y13.3966 I-0.6752 J0.2797
G2 X184.2048 Y13.2381 I-0.5168 J0.5168
G2 X183.9251 Y13.1825 I-0.2797 J0.6752
G2 X183.6454 Y13.2381 I0 J0.7308
G2 X183.4083 Y13.3965 I0.2797 J0.6752
G2 X183.2499 Y13.6336 I0.5168 J0.5168
G2 X183.1943 Y13.9133 I0.6752 J0.2797
G2 X183.2499 Y14.193 I0.7309 J0
G1 X182.1413 Y14.6522 F250
G2 X182.5598 Y15.2786 I1.7839 J-0.7389 F250
G2 X183.1862 Y15.6972 I1.3653 J-1.3653
G2 X183.9251 Y15.8442 I0.7389 J-1.7838
G2 X184.664 Y15.6972 I0 J-1.9308
G2 X185.2904 Y15.2786 I-0.7389 J-1.7839
G2 X185.709 Y14.6522 I-1.3653 J-1.3653
G2 X185.8559 Y13.9133 I-1.7839 J-0.7389
G2 X185.709 Y13.1744 I-1.9308 J0
G2 X185.2904 Y12.548 I-1.7839 J0.7389
G2 X184.664 Y12.1295 I-1.3653 J1.3653
G2 X183.9251 Y11.9825 I-0.7389 J1.7839
G2 X183.1862 Y12.1295 I0 J1.9308
G2 X182.5598 Y12.548 I0.7389 J1.7838
G2 X182.1412 Y13.1744 I1.3653 J1.3653
G2 X181.9943 Y13.9133 I1.7838 J0.7389
G2 X182.1413 Y14.6522 I1.9309 J0
G1 X181.0326 Y15.1114 F250
G2 X181.7113 Y16.1272 I2.8925 J-1.1981 F250
G2 X182.727 Y16.8058 I2.2138 J-2.2138
G2 X183.9251 Y17.0442 I1.1981 J-2.8925
G2 X185.1232 Y16.8058 I0 J-3.1308
G2 X186.1389 Y16.1272 I-1.1981 J-2.8925
G2 X186.8176 Y15.1114 I-2.2138 J-2.2138
G2 X187.0559 Y13.9133 I-2.8925 J-1.1981
G2 X186.8176 Y12.7152 I-3.1308 J0
G2 X186.1389 Y11.6995 I-2.8925 J1.1981
G2 X185.1232 Y11.0208 I-2.2139 J2.2139
G2 X183.9251 Y10.7825 I-1.1981 J2.8925
G2 X182.727 Y11.0208 I0 J3.1308
G2 X181.7113 Y11.6995 I1.1981 J2.8925
G2 X181.0326 Y12.7152 I2.2138 J2.2138
G2 X180.7943 Y13.9133 I2.8925 J1.1981
G2 X181.0326 Y15.1114 I3.1309 J0

(drill 5)
G0 Z-20
G0 X567.6807 Y13.107
G1 Z-47.5 F800
G1 Z0 F800

(pocket 6)
G0 Z-20
G0 X568.1974 Y12.5902
G1 Z-37.5 F250
G2 X567.9603 Y12.4318 I-0.5168 J0.5168 F250
G2 X567.6807 Y12.3761 I-0.2796 J0.6751
G2 X567.401 Y12.4318 I0 J0.7308
G2 X567.1639 Y12.5902 I0.2797 J0.6752
G2 X567.0055 Y12.8273 I0.5168 J0.5168
G2 X566.9498 Y13.107 I0.6752 J0.2797
G2 X567.0055 Y13.3866 I0.7308 J0
G2 X567.1639 Y13.6237 I0.6752 J-0.2797
G2 X567.401 Y13.7822 I0.5168 J-0.5168
G2 X567.6807 Y13.8378 I0.2797 J-0.6752
G2 X567.9603 Y13.7822 I0 J-0.7308
G2 X568.1974 Y13.6237 I-0.2797 J-0.6752
G2 X568.3558 Y13.3866 I-0.5168 J-0.5168
G2 X568.4115 Y13.107 I-0.6752 J-0.2797
G2 X568.3558 Y12.8273 I-0.7308 J0
G2 X568.1974 Y12.5902 I-0.6752 J0.2797
G1 X569.0459 Y11.7417 F250
G2 X568.4195 Y11.3231 I-1.3653 J1.3653 F250
G2 X567.6807 Y11.1761 I-0.7389 J1.7838
G2 X566.9418 Y11.3231 I0 J1.9308
G2 X566.3154 Y11.7417 I0.7389 J1.7839
G2 X565.8968 Y12.3681 I1.3653 J1.3653
G2 X565.7498 Y13.107 I1.7839 J0.7389
G2 X565.8968 Y13.8459 I1.9308 J0
G2 X566.3154 Y14.4723 I1.7838 J-0.7389
G2 X566.9418 Y14.8908 I1.3653 J-1.3653
G2 X567.6807 Y15.0378 I0.7389 J-1.7838
G2 X568.4195 Y14.8908 I0 J-1.9308
G2 X569.0459 Y14.4723 I-0.7389 J-1.7838
G2 X569.4645 Y13.8459 I-1.3653 J-1.3653
G2 X569.6115 Y13.107 I-1.7838 J-0.7389
G2 X569.4645 Y12.3681 I-1.9308 J0
G2 X569.0459 Y11.7417 I-1.7839 J0.7389
G1 X569.8945 Y10.8931 F250
G2 X568.8788 Y10.2144 I-2.2138 J2.2138 F250
G2 X567.6807 Y9.9761 I-1.1981 J2.8924
G2 X566.4826 Y10.2144 I0 J3.1308
G2 X565.4668 Y10.8931 I1.1981 J2.8925
G2 X564.7882 Y11.9089 I2.2139 J2.2139
G2 X564.5498 Y13.107 I2.8925 J1.1981
G2 X564.7882 Y14.3051 I3.1308 J0
G2 X565.4668 Y15.3208 I2.8925 J-1.1981
G2 X566.4825 Y15.9995 I2.2138 J-2.2138
G2 X567.6807 Y16.2378 I1.1981 J-2.8925
G2 X568.8788 Y15.9995 I0 J-3.1308
G2 X569.8945 Y15.3208 I-1.1981 J-2.8925
G2 X570.5731 Y14.3051 I-2.2138 J-2.2138
G2 X570.8115 Y13.107 I-2.8925 J-1.1981
G2 X570.5731 Y11.9089 I-3.1308 J0
G2 X569.8945 Y10.8931 I-2.8926 J1.1981

(drill 7)
G0 Z-20
G0 X746.3095 Y59.0689
G1 Z-47.5 F800
G1 Z0 F800

(pocket 8)
G0 Z-20
G0 X745.6344 Y59.3486
G1 Z-37.5 F250
G2 X745.7928 Y59.5857 I0.6752 J-0.2797 F250
G2 X746.0299 Y59.7441 I0.5168 J-0.5168
G2 X746.3095 Y59.7997 I0.2797 J-0.6752
G2 X746.5892 Y59.7441 I0 J-0.7308
G2 X746.8263 Y59.5857 I-0.2797 J-0.6752
G2 X746.9847 Y59.3486 I-0.5168 J-0.5168
G2 X747.0404 Y59.0689 I-0.6753 J-0.2797
G2 X746.9847 Y58.7892 I-0.7308 J0
G2 X746.8263 Y58.5521 I-0.6752 J0.2797
G2 X746.5892 Y58.3937 I-0.5168 J0.5168
G2 X746.3095 Y58.3381 I-0.2797 J0.6752
G2 X746.0299 Y58.3937 I0 J0.7308
G2 X745.7928 Y58.5521 I0.2797 J0.6752
G2 X745.6344 Y58.7892 I0.5168 J0.5168
G2 X745.5787 Y59.0689 I0.6752 J0.2797
G2 X745.6344 Y59.3486 I0.7309 J0
G1 X744.5257 Y59.8078 F250
G2 X744.9443 Y60.4342 I1.7839 J-0.7389 F250
G2 X745.5707 Y60.8527 I1.3653 J-1.3653
G2 X746.3095 Y60.9997 I0.7389 J-1.7838
G2 X747.0484 Y60.8527 I0 J-1.9308
G2 X747.6748 Y60.4342 I-0.7389 J-1.7838
G2 X748.0934 Y59.8078 I-1.3653 J-1.3653
G2 X748.2404 Y59.0689 I-1.7839 J-0.7389
G2 X748.0934 Y58.33 I-1.9308 J0
G2 X747.6748 Y57.7036 I-1.7838 J0.7389
G2 X747.0484 Y57.285 I-1.3653 J1.3653
G2 X746.3095 Y57.1381 I-0.7389 J1.7838
G2 X745.5707 Y57.285 I0 J1.9308
G2 X744.9442 Y57.7036 I0.7389 J1.7838
G2 X744.5257 Y58.33 I1.3653 J1.3653
G2 X744.3787 Y59.0689 I1.7838 J0.7389
G2 X744.5257 Y59.8078 I1.9309 J0
G1 X743.417 Y60.267 F250
G2 X744.0957 Y61.2827 I2.8925 J-1.1981 F250
G2 X745.1114 Y61.9614 I2.2138 J-2.2138
G2 X746.3095 Y62.1997 I1.1981 J-2.8925
G2 X747.5076 Y61.9614 I0 J-3.1308
G2 X748.5234 Y61.2827 I-1.1981 J-2.8925
G2 X749.202 Y60.267 I-2.2138 J-2.2138
G2 X749.4404 Y59.0689 I-2.8926 J-1.1981
G2 X749.202 Y57.8708 I-3.1308 J0
G2 X748.5234 Y56.855 I-2.8925 J1.1981
G2 X747.5076 Y56.1764 I-2.2138 J2.2138
G2 X746.3095 Y55.9381 I-1.1981 J2.8925
G2 X745.1114 Y56.1764 I0 J3.1308
G2 X744.0957 Y56.855 I1.1981 J2.8925
G2 X743.417 Y57.8708 I2.2138 J2.2138
G2 X743.1787 Y59.0689 I2.8925 J1.1981
G2 X743.417 Y60.267 I3.1309 J0

(profile 9)
G0 Z-20
G0 X752.4688 Y67.7601
G1 Z-47.5 F250
G2 X753.9688 Y66.2601 I0 J-1.5 F250
G1 X753.9688 Y6.589
G2 X752.4688 Y5.089 I-1.5 J0
G1 X5.7977 Y5.089
G2 X4.2977 Y6.589 I0 J1.5
G1 X4.2977 Y66.2601
G2 X5.7977 Y67.7601 I1.5 J0
G1 X752.4688 Y67.7601
G0 Z-20
M5
M30
