(Generated by PartKam Version 0.05)

G21 G90 G40

(drill 1)
G0 Z-20
T0 M6
G17
M3
G0 X71.1011 Y10.8377
G1 Z-47.5 F800
G1 Z0 F800

(pocket 2)
G0 Z-20
G0 X70.2645 Y10.0023
G1 Z-37.5 F250
G1 X70.2645 Y10.1196 F250
G3 X70.291 Y10.5737 I-3.8735 J0.4541
G3 X70.2825 Y10.831 I-3.9 J0
G1 X70.277 Y10.9141
G2 X70.3361 Y11.153 I0.8183 J-0.0758
G2 X70.5163 Y11.4226 I0.7684 J-0.3185
G2 X70.786 Y11.6029 I0.5882 J-0.5882
G2 X71.1007 Y11.6655 I0.3147 J-0.7592
G2 X71.4154 Y11.6029 I0 J-0.8219
G2 X71.6851 Y11.4226 I-0.3185 J-0.7684
G2 X71.8653 Y11.153 I-0.5882 J-0.5882
G2 X71.9244 Y10.9141 I-0.7591 J-0.3146
G1 X71.9189 Y10.831
G3 X71.9104 Y10.5737 I3.8915 J-0.2573
G3 X71.937 Y10.1196 I3.9 J0
G1 X71.937 Y10.0023
G1 X70.2645 Y10.0023
G1 X69.0645 Y10.1962 F250
G3 X69.091 Y10.5737 I-2.6735 J0.3776 F250
G3 X69.0851 Y10.7519 I-2.7 J0
G1 X69.0747 Y10.9089
G2 X69.2275 Y11.6124 I2.0205 J-0.0706
G2 X69.6678 Y12.2712 I1.877 J-0.7779
G2 X70.3266 Y12.7115 I1.4367 J-1.4367
G2 X71.1007 Y12.8655 I0.7741 J-1.8678
G2 X71.8748 Y12.7115 I0 J-2.0219
G2 X72.5336 Y12.2712 I-0.7779 J-1.877
G2 X72.9739 Y11.6124 I-1.4367 J-1.4367
G2 X73.1267 Y10.9089 I-1.8677 J-0.7741
G1 X73.1163 Y10.7519
G3 X73.1104 Y10.5737 I2.6941 J-0.1782
G3 X73.137 Y10.1962 I2.7 J0
G1 X73.137 Y8.8023
G1 X69.0645 Y8.8023
G1 X69.0645 Y10.1962
G1 X67.8645 Y10.2929 F250
G3 X67.891 Y10.5737 I-1.4735 J0.2809 F250
G3 X67.8877 Y10.6727 I-1.5 J0
G1 X67.8738 Y10.8831
G2 X68.119 Y12.0719 I3.2215 J-0.0448
G2 X68.8193 Y13.1197 I2.9855 J-1.2374
G2 X69.8671 Y13.82 I2.2852 J-2.2852
G2 X71.1007 Y14.0655 I1.2336 J-2.9763
G2 X72.3343 Y13.82 I0 J-3.2219
G2 X73.3821 Y13.1197 I-1.2374 J-2.9855
G2 X74.0824 Y12.0719 I-2.2852 J-2.2852
G2 X74.3276 Y10.8831 I-2.9763 J-1.2335
G1 X74.3137 Y10.6727
G3 X74.3104 Y10.5737 I1.4967 J-0.099
G3 X74.337 Y10.2929 I1.5 J0
G1 X74.337 Y7.6023
G1 X67.8645 Y7.6023
G1 X67.8645 Y10.2929

(drill 3)
G0 Z-20
G0 X176.1011 Y10.8377
G1 Z-47.5 F800
G1 Z0 F800

(pocket 4)
G0 Z-20
G0 X175.2645 Y10.0023
G1 Z-37.5 F250
G1 X175.2645 Y10.1196 F250
G3 X175.291 Y10.5737 I-3.8735 J0.4541
G3 X175.2825 Y10.831 I-3.9 J0
G1 X175.277 Y10.9141
G2 X175.3361 Y11.153 I0.8183 J-0.0758
G2 X175.5164 Y11.4226 I0.7684 J-0.3185
G2 X175.7861 Y11.6029 I0.5882 J-0.5882
G2 X176.1007 Y11.6655 I0.3147 J-0.7592
G2 X176.4154 Y11.6029 I0 J-0.8219
G2 X176.6851 Y11.4226 I-0.3185 J-0.7684
G2 X176.8653 Y11.153 I-0.5882 J-0.5882
G2 X176.9244 Y10.9141 I-0.7591 J-0.3146
G1 X176.9189 Y10.831
G3 X176.9104 Y10.5737 I3.8915 J-0.2573
G3 X176.937 Y10.1196 I3.9 J0
G1 X176.937 Y10.0023
G1 X175.2645 Y10.0023
G1 X174.0645 Y10.1962 F250
G3 X174.091 Y10.5737 I-2.6735 J0.3776 F250
G3 X174.0851 Y10.7519 I-2.7 J0
G1 X174.0747 Y10.9089
G2 X174.2276 Y11.6124 I2.0205 J-0.0706
G2 X174.6678 Y12.2712 I1.877 J-0.7779
G2 X175.3266 Y12.7115 I1.4367 J-1.4367
G2 X176.1007 Y12.8655 I0.7741 J-1.8678
G2 X176.8748 Y12.7115 I0 J-2.0219
G2 X177.5336 Y12.2712 I-0.7779 J-1.877
G2 X177.9739 Y11.6124 I-1.4367 J-1.4367
G2 X178.1267 Y10.9089 I-1.8677 J-0.7741
G1 X178.1163 Y10.7519
G3 X178.1104 Y10.5737 I2.6941 J-0.1782
G3 X178.137 Y10.1962 I2.7 J0
G1 X178.137 Y8.8023
G1 X174.0645 Y8.8023
G1 X174.0645 Y10.1962
G1 X172.8645 Y10.2929 F250
G3 X172.891 Y10.5737 I-1.4735 J0.2809 F250
G3 X172.8877 Y10.6727 I-1.5 J0
G1 X172.8738 Y10.8831
G2 X173.119 Y12.0719 I3.2215 J-0.0448
G2 X173.8193 Y13.1197 I2.9855 J-1.2374
G2 X174.8672 Y13.82 I2.2852 J-2.2852
G2 X176.1007 Y14.0655 I1.2336 J-2.9763
G2 X177.3343 Y13.82 I0 J-3.2219
G2 X178.3821 Y13.1197 I-1.2374 J-2.9855
G2 X179.0824 Y12.0719 I-2.2852 J-2.2852
G2 X179.3276 Y10.8831 I-2.9763 J-1.2335
G1 X179.3137 Y10.6727
G3 X179.3104 Y10.5737 I1.4967 J-0.099
G3 X179.337 Y10.2929 I1.5 J0
G1 X179.337 Y7.6023
G1 X172.8645 Y7.6023
G1 X172.8645 Y10.2929

(drill 5)
G0 Z-20
G0 X281.088 Y10.8377
G1 Z-47.5 F800
G1 Z0 F800

(pocket 6)
G0 Z-20
G0 X280.2513 Y10.0023
G1 Z-37.5 F250
G1 X280.2513 Y10.1196 F250
G3 X280.2779 Y10.5737 I-3.8735 J0.4541
G3 X280.2694 Y10.831 I-3.9 J0
G1 X280.2639 Y10.9141
G2 X280.323 Y11.153 I0.8183 J-0.0758
G2 X280.5032 Y11.4226 I0.7684 J-0.3185
G2 X280.7729 Y11.6029 I0.5882 J-0.5882
G2 X281.0876 Y11.6655 I0.3147 J-0.7593
G2 X281.4023 Y11.6029 I0 J-0.8219
G2 X281.672 Y11.4226 I-0.3185 J-0.7684
G2 X281.8522 Y11.153 I-0.5882 J-0.5882
G2 X281.9113 Y10.9141 I-0.7591 J-0.3146
G1 X281.9058 Y10.831
G3 X281.8973 Y10.5737 I3.8915 J-0.2573
G3 X281.9238 Y10.1196 I3.9 J0
G1 X281.9238 Y10.0023
G1 X280.2513 Y10.0023
G1 X279.0513 Y10.1962 F250
G3 X279.0779 Y10.5737 I-2.6735 J0.3776 F250
G3 X279.072 Y10.7519 I-2.7 J0
G1 X279.0616 Y10.9089
G2 X279.2144 Y11.6124 I2.0205 J-0.0706
G2 X279.6547 Y12.2712 I1.8769 J-0.7779
G2 X280.3135 Y12.7114 I1.4367 J-1.4367
G2 X281.0876 Y12.8655 I0.7741 J-1.8678
G2 X281.8617 Y12.7115 I0 J-2.0219
G2 X282.5205 Y12.2712 I-0.7779 J-1.877
G2 X282.9608 Y11.6124 I-1.4367 J-1.4367
G2 X283.1136 Y10.9089 I-1.8677 J-0.7741
G1 X283.1032 Y10.7519
G3 X283.0973 Y10.5737 I2.6941 J-0.1782
G3 X283.1238 Y10.1962 I2.7 J0
G1 X283.1238 Y8.8023
G1 X279.0513 Y8.8023
G1 X279.0513 Y10.1962
G1 X277.8513 Y10.2929 F250
G3 X277.8779 Y10.5737 I-1.4735 J0.2809 F250
G3 X277.8746 Y10.6727 I-1.5 J0
G1 X277.8607 Y10.8831
G2 X278.1059 Y12.0719 I3.2215 J-0.0448
G2 X278.8062 Y13.1197 I2.9855 J-1.2374
G2 X279.854 Y13.82 I2.2852 J-2.2852
G2 X281.0876 Y14.0655 I1.2336 J-2.9764
G2 X282.3212 Y13.82 I0 J-3.2219
G2 X283.369 Y13.1197 I-1.2374 J-2.9855
G2 X284.0693 Y12.0719 I-2.2852 J-2.2852
G2 X284.3145 Y10.8831 I-2.9763 J-1.2335
G1 X284.3006 Y10.6727
G3 X284.2973 Y10.5737 I1.4967 J-0.099
G3 X284.3238 Y10.2929 I1.5 J0
G1 X284.3238 Y7.6023
G1 X277.8513 Y7.6023
G1 X277.8513 Y10.2929

(drill 7)
G0 Z-20
G0 X290.0889 Y37.05
G1 Z-47.5 F800
G1 Z0 F800

(pocket 8)
G0 Z-20
G0 X289.5059 Y36.4671
G1 Z-37.5 F250
G2 X289.3272 Y36.7346 I0.583 J0.583 F250
G2 X289.2645 Y37.05 I0.7616 J0.3155
G2 X289.3272 Y37.3655 I0.8244 J0
G2 X289.5059 Y37.633 I0.7617 J-0.3155
G2 X289.7734 Y37.8117 I0.583 J-0.583
G2 X290.0889 Y37.8745 I0.3155 J-0.7617
G2 X290.4044 Y37.8117 I0 J-0.8243
G2 X290.6718 Y37.633 I-0.3155 J-0.7617
G2 X290.8505 Y37.3655 I-0.583 J-0.583
G2 X290.9133 Y37.05 I-0.7617 J-0.3155
G2 X290.8505 Y36.7346 I-0.8244 J0
G2 X290.6718 Y36.4671 I-0.7617 J0.3155
G2 X290.4044 Y36.2884 I-0.583 J0.583
G2 X290.0889 Y36.2256 I-0.3155 J0.7616
G2 X289.7734 Y36.2884 I0 J0.8244
G2 X289.5059 Y36.4671 I0.3155 J0.7617
G1 X288.6574 Y35.6186 F250
G2 X288.2186 Y36.2753 I1.4315 J1.4315 F250
G2 X288.0645 Y37.05 I1.8703 J0.7747
G2 X288.2186 Y37.8247 I2.0244 J0
G2 X288.6574 Y38.4815 I1.8703 J-0.7747
G2 X289.3142 Y38.9204 I1.4315 J-1.4315
G2 X290.0889 Y39.0745 I0.7747 J-1.8703
G2 X290.8636 Y38.9204 I0 J-2.0243
G2 X291.5204 Y38.4815 I-0.7747 J-1.8703
G2 X291.9592 Y37.8247 I-1.4315 J-1.4315
G2 X292.1133 Y37.05 I-1.8703 J-0.7747
G2 X291.9592 Y36.2753 I-2.0244 J0
G2 X291.5204 Y35.6186 I-1.8703 J0.7747
G2 X290.8636 Y35.1797 I-1.4315 J1.4315
G2 X290.0889 Y35.0256 I-0.7747 J1.8703
G2 X289.3142 Y35.1797 I0 J2.0244
G2 X288.6574 Y35.6186 I0.7747 J1.8703
G1 X287.8089 Y34.77 F250
G2 X287.1099 Y35.8161 I2.28 J2.28 F250
G2 X286.8645 Y37.05 I2.9789 J1.2339
G2 X287.1099 Y38.284 I3.2244 J0
G2 X287.8089 Y39.33 I2.979 J-1.2339
G2 X288.855 Y40.029 I2.28 J-2.28
G2 X290.0889 Y40.2745 I1.2339 J-2.979
G2 X291.3228 Y40.029 I0 J-3.2243
G2 X292.3689 Y39.33 I-1.2339 J-2.979
G2 X293.0679 Y38.284 I-2.28 J-2.28
G2 X293.3133 Y37.05 I-2.979 J-1.2339
G2 X293.0679 Y35.8161 I-3.2244 J0
G2 X292.3689 Y34.77 I-2.979 J1.2339
G2 X291.3228 Y34.0711 I-2.28 J2.28
G2 X290.0889 Y33.8256 I-1.2339 J2.9789
G2 X288.855 Y34.0711 I0 J3.2244
G2 X287.8089 Y34.77 I1.2339 J2.979

(drill 9)
G0 Z-20
G0 X290.0889 Y174.6321
G1 Z-47.5 F800
G1 Z0 F800

(pocket 10)
G0 Z-20
G0 X290.6718 Y174.0492
G1 Z-37.5 F250
G2 X290.4044 Y173.8705 I-0.583 J0.583 F250
G2 X290.0889 Y173.8077 I-0.3155 J0.7616
G2 X289.7734 Y173.8705 I0 J0.8244
G2 X289.5059 Y174.0492 I0.3155 J0.7617
G2 X289.3272 Y174.3166 I0.583 J0.583
G2 X289.2645 Y174.6321 I0.7617 J0.3155
G2 X289.3272 Y174.9476 I0.8243 J0
G2 X289.5059 Y175.2151 I0.7617 J-0.3155
G2 X289.7734 Y175.3938 I0.583 J-0.583
G2 X290.0889 Y175.4565 I0.3155 J-0.7617
G2 X290.4044 Y175.3938 I0 J-0.8244
G2 X290.6718 Y175.2151 I-0.3155 J-0.7617
G2 X290.8505 Y174.9476 I-0.583 J-0.583
G2 X290.9133 Y174.6321 I-0.7616 J-0.3155
G2 X290.8505 Y174.3166 I-0.8244 J0
G2 X290.6718 Y174.0492 I-0.7617 J0.3155
G1 X291.5204 Y173.2007 F250
G2 X290.8636 Y172.7618 I-1.4315 J1.4315 F250
G2 X290.0889 Y172.6077 I-0.7747 J1.8703
G2 X289.3142 Y172.7618 I0 J2.0244
G2 X288.6574 Y173.2007 I0.7747 J1.8703
G2 X288.2186 Y173.8574 I1.4315 J1.4315
G2 X288.0645 Y174.6321 I1.8703 J0.7747
G2 X288.2186 Y175.4068 I2.0243 J0
G2 X288.6574 Y176.0636 I1.8703 J-0.7747
G2 X289.3142 Y176.5024 I1.4315 J-1.4315
G2 X290.0889 Y176.6565 I0.7747 J-1.8703
G2 X290.8636 Y176.5024 I0 J-2.0244
G2 X291.5204 Y176.0636 I-0.7747 J-1.8703
G2 X291.9592 Y175.4068 I-1.4315 J-1.4315
G2 X292.1133 Y174.6321 I-1.8703 J-0.7747
G2 X291.9592 Y173.8574 I-2.0244 J0
G2 X291.5204 Y173.2007 I-1.8703 J0.7747
G1 X292.3689 Y172.3521 F250
G2 X291.3228 Y171.6532 I-2.28 J2.28 F250
G2 X290.0889 Y171.4077 I-1.2339 J2.9789
G2 X288.855 Y171.6532 I0 J3.2244
G2 X287.8089 Y172.3521 I1.2339 J2.979
G2 X287.1099 Y173.3982 I2.28 J2.28
G2 X286.8645 Y174.6321 I2.979 J1.2339
G2 X287.1099 Y175.8661 I3.2243 J0
G2 X287.8089 Y176.9121 I2.979 J-1.2339
G2 X288.855 Y177.6111 I2.28 J-2.28
G2 X290.0889 Y177.8565 I1.2339 J-2.979
G2 X291.3228 Y177.6111 I0 J-3.2244
G2 X292.3689 Y176.9121 I-1.2339 J-2.979
G2 X293.0679 Y175.8661 I-2.28 J-2.28
G2 X293.3133 Y174.6321 I-2.9789 J-1.2339
G2 X293.0679 Y173.3982 I-3.2244 J0
G2 X292.3689 Y172.3521 I-2.979 J1.2339

(drill 11)
G0 Z-20
G0 X281.088 Y200.8301
G1 Z-47.5 F800
G1 Z0 F800

(pocket 12)
G0 Z-20
G0 X281.9238 Y201.6655
G1 Z-37.5 F250
G1 X281.9238 Y201.5482 F250
G3 X281.8973 Y201.0941 I3.8735 J-0.4541
G3 X281.9058 Y200.8368 I3.9 J0
G1 X281.9113 Y200.7537
G2 X281.8522 Y200.5148 I-0.8183 J0.0758
G2 X281.672 Y200.2452 I-0.7684 J0.3185
G2 X281.4023 Y200.0649 I-0.5882 J0.5882
G2 X281.0876 Y200.0023 I-0.3147 J0.7592
G2 X280.7729 Y200.0649 I0 J0.8219
G2 X280.5032 Y200.2452 I0.3185 J0.7684
G2 X280.323 Y200.5148 I0.5881 J0.5881
G2 X280.2639 Y200.7537 I0.7592 J0.3146
G1 X280.2694 Y200.8368
G3 X280.2779 Y201.0941 I-3.8915 J0.2573
G3 X280.2513 Y201.5482 I-3.9 J0
G1 X280.2513 Y201.6655
G1 X281.9238 Y201.6655
G1 X283.1238 Y201.4716 F250
G3 X283.0973 Y201.0941 I2.6735 J-0.3776 F250
G3 X283.1032 Y200.9159 I2.7 J0
G1 X283.1136 Y200.7589
G2 X282.9608 Y200.0554 I-2.0205 J0.0706
G2 X282.5205 Y199.3966 I-1.877 J0.7779
G2 X281.8617 Y198.9563 I-1.4367 J1.4367
G2 X281.0876 Y198.8023 I-0.7741 J1.8678
G2 X280.3135 Y198.9563 I0 J2.0219
G2 X279.6547 Y199.3966 I0.7779 J1.877
G2 X279.2144 Y200.0554 I1.4367 J1.4367
G2 X279.0616 Y200.7589 I1.8677 J0.7741
G1 X279.072 Y200.9159
G3 X279.0779 Y201.0941 I-2.6941 J0.1782
G3 X279.0513 Y201.4716 I-2.7 J0
G1 X279.0513 Y202.8655
G1 X283.1238 Y202.8655
G1 X283.1238 Y201.4716
G1 X284.3238 Y201.3749 F250
G3 X284.2973 Y201.0941 I1.4735 J-0.2809 F250
G3 X284.3006 Y200.9951 I1.5 J0
G1 X284.3145 Y200.7847
G2 X284.0693 Y199.5959 I-3.2215 J0.0448
G2 X283.369 Y198.5481 I-2.9855 J1.2374
G2 X282.3212 Y197.8478 I-2.2852 J2.2852
G2 X281.0876 Y197.6023 I-1.2336 J2.9763
G2 X279.854 Y197.8478 I0 J3.2219
G2 X278.8062 Y198.5481 I1.2374 J2.9855
G2 X278.1059 Y199.5959 I2.2852 J2.2852
G2 X277.8607 Y200.7847 I2.9763 J1.2336
G1 X277.8746 Y200.9951
G3 X277.8779 Y201.0941 I-1.4967 J0.099
G3 X277.8513 Y201.3749 I-1.5 J0
G1 X277.8513 Y204.0655
G1 X284.3238 Y204.0655
G1 X284.3238 Y201.3749

(drill 13)
G0 Z-20
G0 X176.1011 Y200.8301
G1 Z-47.5 F800
G1 Z0 F800

(pocket 14)
G0 Z-20
G0 X176.937 Y201.6655
G1 Z-37.5 F250
G1 X176.937 Y201.5482 F250
G3 X176.9104 Y201.0941 I3.8735 J-0.4541
G3 X176.9189 Y200.8368 I3.9 J0
G1 X176.9244 Y200.7537
G2 X176.8653 Y200.5148 I-0.8183 J0.0758
G2 X176.6851 Y200.2452 I-0.7684 J0.3185
G2 X176.4154 Y200.0649 I-0.5882 J0.5882
G2 X176.1007 Y200.0023 I-0.3147 J0.7592
G2 X175.7861 Y200.0649 I0 J0.8219
G2 X175.5164 Y200.2452 I0.3185 J0.7684
G2 X175.3361 Y200.5148 I0.5882 J0.5882
G2 X175.277 Y200.7537 I0.7591 J0.3146
G1 X175.2825 Y200.8368
G3 X175.291 Y201.0941 I-3.8915 J0.2573
G3 X175.2645 Y201.5482 I-3.9 J0
G1 X175.2645 Y201.6655
G1 X176.937 Y201.6655
G1 X178.137 Y201.4716 F250
G3 X178.1104 Y201.0941 I2.6735 J-0.3776 F250
G3 X178.1163 Y200.9159 I2.7 J0
G1 X178.1267 Y200.7589
G2 X177.9739 Y200.0554 I-2.0205 J0.0706
G2 X177.5336 Y199.3966 I-1.877 J0.7779
G2 X176.8748 Y198.9563 I-1.4367 J1.4367
G2 X176.1007 Y198.8023 I-0.7741 J1.8678
G2 X175.3266 Y198.9563 I0 J2.0219
G2 X174.6678 Y199.3966 I0.7779 J1.877
G2 X174.2276 Y200.0554 I1.4367 J1.4367
G2 X174.0747 Y200.7589 I1.8677 J0.7741
G1 X174.0851 Y200.9159
G3 X174.091 Y201.0941 I-2.6941 J0.1782
G3 X174.0645 Y201.4716 I-2.7 J0
G1 X174.0645 Y202.8655
G1 X178.137 Y202.8655
G1 X178.137 Y201.4716
G1 X179.337 Y201.3749 F250
G3 X179.3104 Y201.0941 I1.4735 J-0.2809 F250
G3 X179.3137 Y200.9951 I1.5 J0
G1 X179.3276 Y200.7847
G2 X179.0824 Y199.5959 I-3.2215 J0.0448
G2 X178.3821 Y198.5481 I-2.9855 J1.2374
G2 X177.3343 Y197.8478 I-2.2852 J2.2852
G2 X176.1007 Y197.6023 I-1.2336 J2.9763
G2 X174.8672 Y197.8478 I0 J3.2219
G2 X173.8193 Y198.5481 I1.2374 J2.9855
G2 X173.119 Y199.5959 I2.2852 J2.2852
G2 X172.8738 Y200.7847 I2.9763 J1.2335
G1 X172.8877 Y200.9951
G3 X172.891 Y201.0941 I-1.4967 J0.099
G3 X172.8645 Y201.3749 I-1.5 J0
G1 X172.8645 Y204.0655
G1 X179.337 Y204.0655
G1 X179.337 Y201.3749

(drill 15)
G0 Z-20
G0 X71.1011 Y200.8301
G1 Z-47.5 F800
G1 Z0 F800

(pocket 16)
G0 Z-20
G0 X71.937 Y201.6655
G1 Z-37.5 F250
G1 X71.937 Y201.5482 F250
G3 X71.9104 Y201.0941 I3.8735 J-0.4541
G3 X71.9189 Y200.8368 I3.9 J0
G1 X71.9244 Y200.7537
G2 X71.8653 Y200.5148 I-0.8183 J0.0758
G2 X71.6851 Y200.2452 I-0.7684 J0.3185
G2 X71.4154 Y200.0649 I-0.5882 J0.5882
G2 X71.1007 Y200.0023 I-0.3147 J0.7592
G2 X70.786 Y200.0649 I0 J0.8219
G2 X70.5163 Y200.2452 I0.3185 J0.7684
G2 X70.3361 Y200.5148 I0.5882 J0.5882
G2 X70.277 Y200.7537 I0.7591 J0.3146
G1 X70.2825 Y200.8368
G3 X70.291 Y201.0941 I-3.8915 J0.2573
G3 X70.2645 Y201.5482 I-3.9 J0
G1 X70.2645 Y201.6655
G1 X71.937 Y201.6655
G1 X73.137 Y201.4716 F250
G3 X73.1104 Y201.0941 I2.6735 J-0.3776 F250
G3 X73.1163 Y200.9159 I2.7 J0
G1 X73.1267 Y200.7589
G2 X72.9739 Y200.0554 I-2.0205 J0.0706
G2 X72.5336 Y199.3966 I-1.877 J0.7779
G2 X71.8748 Y198.9563 I-1.4367 J1.4367
G2 X71.1007 Y198.8023 I-0.7741 J1.8678
G2 X70.3266 Y198.9563 I0 J2.0219
G2 X69.6678 Y199.3966 I0.7779 J1.877
G2 X69.2275 Y200.0554 I1.4367 J1.4367
G2 X69.0747 Y200.7589 I1.8677 J0.7741
G1 X69.0851 Y200.9159
G3 X69.091 Y201.0941 I-2.6941 J0.1782
G3 X69.0645 Y201.4716 I-2.7 J0
G1 X69.0645 Y202.8655
G1 X73.137 Y202.8655
G1 X73.137 Y201.4716
G1 X74.337 Y201.3749 F250
G3 X74.3104 Y201.0941 I1.4735 J-0.2809 F250
G3 X74.3137 Y200.9951 I1.5 J0
G1 X74.3276 Y200.7847
G2 X74.0824 Y199.5959 I-3.2215 J0.0448
G2 X73.3821 Y198.5481 I-2.9855 J1.2374
G2 X72.3343 Y197.8478 I-2.2852 J2.2852
G2 X71.1007 Y197.6023 I-1.2336 J2.9763
G2 X69.8671 Y197.8478 I0 J3.2219
G2 X68.8193 Y198.5481 I1.2374 J2.9855
G2 X68.119 Y199.5959 I2.2852 J2.2852
G2 X67.8738 Y200.7847 I2.9763 J1.2335
G1 X67.8877 Y200.9951
G3 X67.891 Y201.0941 I-1.4967 J0.099
G3 X67.8645 Y201.3749 I-1.5 J0
G1 X67.8645 Y204.0655
G1 X74.337 Y204.0655
G1 X74.337 Y201.3749

(profile 17)
G0 Z-20
G0 X25.7482 Y155.3569
G1 Z-47.5 F250
G1 X25.7482 Y155.4982 F250
G2 X26.3833 Y158.6883 I8.3299 J0
G2 X28.1915 Y161.3917 I7.6942 J-3.1897
G2 X30.897 Y163.1974 I5.8934 J-5.9007
G2 X34.0907 Y163.8319 I3.1937 J-7.7204
G2 X37.2844 Y163.1974 I0 J-8.3549
G2 X39.99 Y161.3917 I-3.1879 J-7.7064
G2 X41.7982 Y158.6883 I-5.886 J-5.8933
G2 X42.4331 Y155.5428 I-7.6949 J-3.1901
G1 X42.4274 Y155.45
G3 X42.4245 Y155.3571 I1.4971 J-0.0928
G3 X42.451 Y155.0763 I1.5 J0
G1 X42.451 Y55.9165
G3 X42.4245 Y55.6357 I1.4735 J-0.2809
G3 X42.4274 Y55.5428 I1.5 J0
G1 X42.4331 Y55.45
G2 X41.7983 Y52.303 I-8.3382 J0.0445
G2 X39.9893 Y49.596 I-7.7105 J3.1945
G2 X37.2823 Y47.787 I-5.9016 J5.9016
G2 X34.0907 Y47.1521 I-3.1915 J7.7034
G2 X30.8992 Y47.787 I0 J8.3383
G2 X28.1921 Y49.596 I3.1945 J7.7105
G2 X26.3832 Y52.303 I5.9015 J5.9015
G2 X25.7482 Y55.4946 I7.7034 J3.1915
G3 X25.7364 Y55.6821 I-1.5 J0
G1 X25.7305 Y55.7297
G1 X25.7482 Y155.3569

(profile 18)
G0 Z-20
G0 X6.2298 Y4.4821
G1 Z-47.5 F250
G2 X4.7298 Y5.9821 I0 J1.5 F250
G1 X4.7298 Y205.7002
G2 X6.2298 Y207.2002 I1.5 J0
G1 X305.9479 Y207.2002
G2 X307.4479 Y205.7002 I0 J-1.5
G1 X307.4479 Y5.9821
G2 X305.9479 Y4.4821 I-1.5 J0
G1 X6.2298 Y4.4821
G0 Z-20
M5
M30
