(Generated by PartKam Version 0.05)

G21 G90 G40

(pocket 1)
G0 Z-20
T0 M6
G17
M3

(Groove)
G0 X-2.5 Y25.1521
G1 Z-42.5 F400
G1 X731
G1 Y31.6521
G1 X-2.5

(Border)
G1 Z-47.5
G1 X0.3137
G1 Y234.2225
G2 X3.3137 Y237.2225 I3 J0
G1 X724.0459
G2 X727.0459 Y234.2225 I0 J-3 F400
G1 X727.0459 Y4.3903
G2 X724.0459 Y1.3903 I-3 J0
G1 X3.3137 Y1.3903
G2 X0.3137 Y4.3903 I0 J3
G1 X0.3137 Y33.6521

G0 Z-20
M5
M30
