(Generated by PartKam Version 0.05)

G21 G90 G40

(pocket 1)
G0 Z-20
T0 M6
G17
M3
G0 X28.3686 Y139.4664
G1 Z-37.5 F800
G2 X28.4124 Y139.6866 I0.5753 J0 F250
G2 X28.5371 Y139.8732 I0.5315 J-0.2201
G2 X28.7237 Y139.9979 I0.4067 J-0.4067
G2 X28.9439 Y140.0417 I0.2201 J-0.5315
G2 X29.164 Y139.9979 I0 J-0.5753
G2 X29.3507 Y139.8732 I-0.2202 J-0.5315
G2 X29.4754 Y139.6865 I-0.4068 J-0.4068
G2 X29.5192 Y139.4664 I-0.5315 J-0.2201
G2 X29.4754 Y139.2462 I-0.5753 J0
G2 X29.3507 Y139.0596 I-0.5315 J0.2202
G2 X29.164 Y138.9349 I-0.4068 J0.4068
G2 X28.9439 Y138.8911 I-0.2202 J0.5315
G2 X28.7237 Y138.9349 I0 J0.5753
G2 X28.5371 Y139.0596 I0.2201 J0.5314
G2 X28.4124 Y139.2462 I0.4068 J0.4068
G2 X28.3686 Y139.4664 I0.5316 J0.2202
G0 Z-20
G0 X25.9686 Y139.4664
G1 Z-37.5 F800
G2 X26.1951 Y140.605 I2.9753 J0 F250
G2 X26.84 Y141.5702 I2.7488 J-1.1386
G2 X27.8053 Y142.2152 I2.1038 J-2.1038
G2 X28.9439 Y142.4417 I1.1386 J-2.7488
G2 X30.0825 Y142.2152 I0 J-2.9753
G2 X31.0477 Y141.5702 I-1.1386 J-2.7488
G2 X31.6927 Y140.605 I-2.1038 J-2.1039
G2 X31.9192 Y139.4664 I-2.7488 J-1.1386
G2 X31.6927 Y138.3278 I-2.9753 J0
G2 X31.0477 Y137.3625 I-2.7488 J1.1386
G2 X30.0825 Y136.7176 I-2.1038 J2.1039
G2 X28.9439 Y136.4911 I-1.1386 J2.7488
G2 X27.8053 Y136.7176 I0 J2.9753
G2 X26.84 Y137.3625 I1.1386 J2.7487
G2 X26.1951 Y138.3278 I2.1038 J2.1038
G2 X25.9686 Y139.4664 I2.7489 J1.1386
G0 Z-20
G0 X27.1686 Y139.4664
G1 Z-37.5 F800
G2 X27.3037 Y140.1458 I1.7753 J0 F250
G2 X27.6886 Y140.7217 I1.6401 J-0.6794
G2 X28.2645 Y141.1065 I1.2553 J-1.2553
G2 X28.9439 Y141.2417 I0.6794 J-1.6401
G2 X29.6232 Y141.1065 I0 J-1.7753
G2 X30.1992 Y140.7217 I-0.6794 J-1.6402
G2 X30.584 Y140.1458 I-1.2553 J-1.2553
G2 X30.7192 Y139.4664 I-1.6401 J-0.6794
G2 X30.584 Y138.787 I-1.7753 J0
G2 X30.1992 Y138.2111 I-1.6401 J0.6794
G2 X29.6232 Y137.8262 I-1.2553 J1.2553
G2 X28.9439 Y137.6911 I-0.6794 J1.6402
G2 X28.2645 Y137.8262 I0 J1.7753
G2 X27.6886 Y138.2111 I0.6793 J1.6401
G2 X27.3037 Y138.787 I1.2553 J1.2553
G2 X27.1686 Y139.4664 I1.6402 J0.6794

(drill 2)
G0 Z-20
G0 X28.9439 Y139.4664
G1 Z-47.5 F800
G1 Z-20 F800

(pocket 3)
G0 Z-20
G0 X28.3686 Y369.2535
G1 Z-37.5 F800
G2 X28.4124 Y369.4737 I0.5754 J0 F250
G2 X28.5371 Y369.6604 I0.5315 J-0.2201
G2 X28.7237 Y369.785 I0.4067 J-0.4067
G2 X28.9439 Y369.8288 I0.2201 J-0.5315
G2 X29.164 Y369.785 I0 J-0.5753
G2 X29.3507 Y369.6603 I-0.2202 J-0.5315
G2 X29.4754 Y369.4737 I-0.4068 J-0.4068
G2 X29.5192 Y369.2535 I-0.5315 J-0.2201
G2 X29.4754 Y369.0334 I-0.5753 J0
G2 X29.3507 Y368.8468 I-0.5315 J0.2202
G2 X29.164 Y368.7221 I-0.4068 J0.4068
G2 X28.9439 Y368.6783 I-0.2202 J0.5315
G2 X28.7237 Y368.7221 I0 J0.5753
G2 X28.5371 Y368.8467 I0.2201 J0.5314
G2 X28.4124 Y369.0334 I0.4068 J0.4068
G2 X28.3686 Y369.2535 I0.5316 J0.2202
G1 X27.1686 Y369.2535 F250
G2 X27.3037 Y369.9329 I1.7754 J0 F250
G2 X27.6886 Y370.5089 I1.6401 J-0.6794
G2 X28.2645 Y370.8937 I1.2553 J-1.2553
G2 X28.9439 Y371.0288 I0.6794 J-1.6401
G2 X29.6232 Y370.8937 I0 J-1.7753
G2 X30.1992 Y370.5089 I-0.6794 J-1.6402
G2 X30.584 Y369.9329 I-1.2553 J-1.2553
G2 X30.7192 Y369.2535 I-1.6401 J-0.6794
G2 X30.584 Y368.5742 I-1.7753 J0
G2 X30.1992 Y367.9982 I-1.6401 J0.6794
G2 X29.6232 Y367.6134 I-1.2553 J1.2553
G2 X28.9439 Y367.4783 I-0.6794 J1.6402
G2 X28.2645 Y367.6134 I0 J1.7753
G2 X27.6886 Y367.9982 I0.6793 J1.6401
G2 X27.3037 Y368.5742 I1.2553 J1.2553
G2 X27.1686 Y369.2535 I1.6402 J0.6794
G1 X25.9686 Y369.2535 F250
G2 X26.1951 Y370.3922 I2.9754 J0 F250
G2 X26.84 Y371.3574 I2.7488 J-1.1386
G2 X27.8053 Y372.0024 I2.1038 J-2.1038
G2 X28.9439 Y372.2288 I1.1386 J-2.7488
G2 X30.0825 Y372.0024 I0 J-2.9753
G2 X31.0477 Y371.3574 I-1.1386 J-2.7488
G2 X31.6927 Y370.3921 I-2.1038 J-2.1038
G2 X31.9192 Y369.2535 I-2.7488 J-1.1386
G2 X31.6927 Y368.115 I-2.9753 J0
G2 X31.0477 Y367.1497 I-2.7488 J1.1386
G2 X30.0825 Y366.5047 I-2.1038 J2.1039
G2 X28.9439 Y366.2783 I-1.1386 J2.7488
G2 X27.8053 Y366.5047 I0 J2.9753
G2 X26.84 Y367.1497 I1.1386 J2.7487
G2 X26.1951 Y368.1149 I2.1038 J2.1038
G2 X25.9686 Y369.2535 I2.7489 J1.1386

(drill 4)
G0 Z-20
G0 X28.9439 Y369.2535
G1 Z-47.5 F800
G1 Z-20 F800

(pocket 5)
G0 Z-20
G0 X168.4879 Y333.5359
G1 Z-37.5 F800
G2 X168.7081 Y333.5797 I0.2202 J-0.5315 F250
G2 X168.9282 Y333.5359 I0 J-0.5753
G2 X169.1149 Y333.4112 I-0.2202 J-0.5315
G2 X169.2396 Y333.2246 I-0.4068 J-0.4068
G2 X169.2834 Y333.0044 I-0.5315 J-0.2202
G2 X169.2396 Y332.7843 I-0.5753 J0
G2 X169.1149 Y332.5976 I-0.5315 J0.2202
G2 X168.9282 Y332.4729 I-0.4068 J0.4068
G2 X168.7081 Y332.4291 I-0.2202 J0.5315
G2 X168.4879 Y332.4729 I0 J0.5753
G2 X168.3013 Y332.5976 I0.2202 J0.5315
G2 X168.1766 Y332.7843 I0.4068 J0.4068
G2 X168.1328 Y333.0044 I0.5315 J0.2202
G2 X168.1766 Y333.2246 I0.5753 J0
G2 X168.3013 Y333.4112 I0.5315 J-0.2202
G2 X168.4879 Y333.5359 I0.4068 J-0.4068
G1 X168.0287 Y334.6446 F250
G2 X168.7081 Y334.7797 I0.6794 J-1.6402 F250
G2 X169.3874 Y334.6446 I0 J-1.7753
G2 X169.9634 Y334.2597 I-0.6794 J-1.6402
G2 X170.3482 Y333.6838 I-1.2553 J-1.2553
G2 X170.4834 Y333.0044 I-1.6401 J-0.6794
G2 X170.3482 Y332.325 I-1.7753 J0
G2 X169.9634 Y331.7491 I-1.6402 J0.6794
G2 X169.3874 Y331.3643 I-1.2553 J1.2553
G2 X168.7081 Y331.2291 I-0.6794 J1.6401
G2 X168.0287 Y331.3643 I0 J1.7753
G2 X167.4528 Y331.7491 I0.6794 J1.6402
G2 X167.0679 Y332.325 I1.2553 J1.2553
G2 X166.9328 Y333.0044 I1.6401 J0.6794
G2 X167.0679 Y333.6838 I1.7753 J0
G2 X167.4528 Y334.2597 I1.6402 J-0.6794
G2 X168.0287 Y334.6446 I1.2553 J-1.2553
G1 X167.5695 Y335.7532 F250
G2 X168.7081 Y335.9797 I1.1386 J-2.7488 F250
G2 X169.8467 Y335.7532 I0 J-2.9753
G2 X170.8119 Y335.1082 I-1.1386 J-2.7488
G2 X171.4569 Y334.143 I-2.1038 J-2.1038
G2 X171.6834 Y333.0044 I-2.7488 J-1.1386
G2 X171.4569 Y331.8658 I-2.9753 J0
G2 X170.8119 Y330.9006 I-2.7488 J1.1386
G2 X169.8467 Y330.2556 I-2.1038 J2.1038
G2 X168.7081 Y330.0291 I-1.1386 J2.7488
G2 X167.5695 Y330.2556 I0 J2.9753
G2 X166.6042 Y330.9006 I1.1386 J2.7488
G2 X165.9593 Y331.8658 I2.1038 J2.1038
G2 X165.7328 Y333.0044 I2.7488 J1.1386
G2 X165.9593 Y334.143 I2.9753 J0
G2 X166.6042 Y335.1082 I2.7488 J-1.1386
G2 X167.5695 Y335.7532 I2.1038 J-2.1038

(drill 6)
G0 Z-20
G0 X168.7081 Y333.0044
G1 Z-47.5 F800
G1 Z-20 F800

(profile 7)
G0 Z-20
G0 X525.1409 Y345.7912
G1 Z-47.5 F800
G2 X518.1077 Y347.1902 I0 J18.3785 F250
G2 X512.1453 Y351.1741 I7.0331 J16.9795
G2 X508.1614 Y357.1365 I12.9955 J12.9955
G2 X506.7624 Y364.1697 I16.9795 J7.0331
G2 X508.1614 Y371.2028 I18.3785 J0
G2 X512.1453 Y377.1652 I16.9795 J-7.0331
G2 X518.1077 Y381.1492 I12.9955 J-12.9955
G2 X525.1409 Y382.5481 I7.0331 J-16.9795
G2 X532.174 Y381.1492 I0 J-18.3785
G2 X538.1364 Y377.1652 I-7.0331 J-16.9795
G2 X542.1204 Y371.2028 I-12.9955 J-12.9956
G2 X543.5193 Y364.1697 I-16.9795 J-7.0331
G2 X542.1204 Y357.1365 I-18.3785 J0
G2 X538.1364 Y351.1741 I-16.9795 J7.0331
G2 X532.174 Y347.1902 I-12.9956 J12.9956
G2 X525.1409 Y345.7912 I-7.0331 J16.9795

(pocket 8)
G0 Z-20
G0 X625.372 Y332.4291
G1 Z-37.5 F800
G2 X625.1519 Y332.4729 I0 J0.5753 F250
G2 X624.9653 Y332.5976 I0.2202 J0.5315
G2 X624.8406 Y332.7843 I0.4068 J0.4068
G2 X624.7968 Y333.0044 I0.5315 J0.2201
G2 X624.8406 Y333.2245 I0.5753 J0
G2 X624.9653 Y333.4112 I0.5315 J-0.2202
G2 X625.1519 Y333.5359 I0.4068 J-0.4068
G2 X625.372 Y333.5797 I0.2201 J-0.5315
G2 X625.5922 Y333.5359 I0 J-0.5753
G2 X625.7789 Y333.4112 I-0.2202 J-0.5315
G2 X625.9036 Y333.2245 I-0.4068 J-0.4068
G2 X625.9474 Y333.0044 I-0.5315 J-0.2201
G2 X625.9036 Y332.7843 I-0.5753 J0
G2 X625.7789 Y332.5976 I-0.5315 J0.2202
G2 X625.5922 Y332.4729 I-0.4068 J0.4068
G2 X625.372 Y332.4291 I-0.2202 J0.5315
G1 X625.372 Y331.2291 F250
G2 X624.6927 Y331.3643 I0 J1.7753 F250
G2 X624.1167 Y331.7491 I0.6794 J1.6402
G2 X623.7319 Y332.325 I1.2553 J1.2553
G2 X623.5968 Y333.0044 I1.6401 J0.6794
G2 X623.7319 Y333.6838 I1.7753 J0
G2 X624.1167 Y334.2597 I1.6402 J-0.6794
G2 X624.6927 Y334.6446 I1.2553 J-1.2553
G2 X625.372 Y334.7797 I0.6794 J-1.6401
G2 X626.0514 Y334.6445 I0 J-1.7753
G2 X626.6274 Y334.2597 I-0.6794 J-1.6402
G2 X627.0122 Y333.6838 I-1.2553 J-1.2553
G2 X627.1474 Y333.0044 I-1.6401 J-0.6794
G2 X627.0122 Y332.325 I-1.7753 J0
G2 X626.6274 Y331.7491 I-1.6402 J0.6794
G2 X626.0514 Y331.3643 I-1.2553 J1.2553
G2 X625.372 Y331.2291 I-0.6794 J1.6402
G1 X625.372 Y330.0291 F250
G2 X624.2335 Y330.2556 I0 J2.9753 F250
G2 X623.2682 Y330.9006 I1.1386 J2.7488
G2 X622.6232 Y331.8658 I2.1039 J2.1039
G2 X622.3968 Y333.0044 I2.7488 J1.1386
G2 X622.6232 Y334.143 I2.9753 J0
G2 X623.2682 Y335.1082 I2.7488 J-1.1386
G2 X624.2335 Y335.7532 I2.1039 J-2.1039
G2 X625.372 Y335.9797 I1.1386 J-2.7488
G2 X626.5107 Y335.7532 I0 J-2.9753
G2 X627.4759 Y335.1082 I-1.1386 J-2.7488
G2 X628.1209 Y334.143 I-2.1038 J-2.1039
G2 X628.3474 Y333.0044 I-2.7488 J-1.1386
G2 X628.1209 Y331.8658 I-2.9753 J0
G2 X627.4759 Y330.9006 I-2.7488 J1.1386
G2 X626.5107 Y330.2556 I-2.1039 J2.1039
G2 X625.372 Y330.0291 I-1.1386 J2.7489

(drill 9)
G0 Z-20
G0 X625.3721 Y333.0044
G1 Z-47.5 F800
G1 Z-20 F800

(pocket 10)
G0 Z-20
G0 X765.6673 Y369.0334
G1 Z-37.5 F800
G2 X765.5426 Y368.8468 I-0.5315 J0.2201 F250
G2 X765.356 Y368.7221 I-0.4068 J0.4068
G2 X765.1359 Y368.6783 I-0.2202 J0.5315
G2 X764.9157 Y368.7221 I0 J0.5753
G2 X764.7291 Y368.8468 I0.2202 J0.5315
G2 X764.6044 Y369.0334 I0.4068 J0.4068
G2 X764.5606 Y369.2535 I0.5315 J0.2201
G2 X764.6044 Y369.4737 I0.5753 J0
G2 X764.7291 Y369.6603 I0.5315 J-0.2202
G2 X764.9157 Y369.785 I0.4068 J-0.4068
G2 X765.1359 Y369.8288 I0.2201 J-0.5315
G2 X765.356 Y369.785 I0 J-0.5753
G2 X765.5426 Y369.6603 I-0.2201 J-0.5315
G2 X765.6673 Y369.4737 I-0.4068 J-0.4068
G2 X765.7111 Y369.2535 I-0.5315 J-0.2202
G2 X765.6673 Y369.0334 I-0.5753 J0
G1 X766.776 Y368.5742 F250
G2 X766.3912 Y367.9982 I-1.6401 J0.6794 F250
G2 X765.8152 Y367.6134 I-1.2553 J1.2553
G2 X765.1359 Y367.4783 I-0.6794 J1.6402
G2 X764.4565 Y367.6134 I0 J1.7753
G2 X763.8805 Y367.9982 I0.6794 J1.6402
G2 X763.4957 Y368.5742 I1.2553 J1.2553
G2 X763.3606 Y369.2535 I1.6401 J0.6794
G2 X763.4957 Y369.9329 I1.7753 J0
G2 X763.8805 Y370.5089 I1.6402 J-0.6794
G2 X764.4565 Y370.8937 I1.2553 J-1.2553
G2 X765.1359 Y371.0288 I0.6794 J-1.6401
G2 X765.8152 Y370.8937 I0 J-1.7753
G2 X766.3912 Y370.5089 I-0.6794 J-1.6401
G2 X766.776 Y369.9329 I-1.2553 J-1.2553
G2 X766.9111 Y369.2535 I-1.6402 J-0.6794
G2 X766.776 Y368.5742 I-1.7753 J0
G1 X767.8847 Y368.115 F250
G2 X767.2397 Y367.1497 I-2.7488 J1.1386 F250
G2 X766.2745 Y366.5047 I-2.1038 J2.1038
G2 X765.1359 Y366.2783 I-1.1386 J2.7488
G2 X763.9973 Y366.5047 I0 J2.9753
G2 X763.032 Y367.1497 I1.1386 J2.7488
G2 X762.3871 Y368.115 I2.1039 J2.1039
G2 X762.1606 Y369.2535 I2.7488 J1.1386
G2 X762.3871 Y370.3921 I2.9753 J0
G2 X763.032 Y371.3574 I2.7488 J-1.1386
G2 X763.9973 Y372.0024 I2.1039 J-2.1039
G2 X765.1359 Y372.2288 I1.1386 J-2.7488
G2 X766.2745 Y372.0024 I0 J-2.9753
G2 X767.2397 Y371.3574 I-1.1386 J-2.7488
G2 X767.8847 Y370.3921 I-2.1038 J-2.1038
G2 X768.1111 Y369.2535 I-2.7488 J-1.1386
G2 X767.8847 Y368.115 I-2.9753 J0

(drill 11)
G0 Z-20
G0 X765.1359 Y369.2535
G1 Z-47.5 F800
G1 Z-20 F800

(pocket 12)
G0 Z-20
G0 X765.6673 Y139.2462
G1 Z-37.5 F800
G2 X765.5426 Y139.0596 I-0.5315 J0.2201 F250
G2 X765.356 Y138.9349 I-0.4068 J0.4068
G2 X765.1359 Y138.8911 I-0.2202 J0.5315
G2 X764.9157 Y138.9349 I0 J0.5753
G2 X764.7291 Y139.0596 I0.2202 J0.5315
G2 X764.6044 Y139.2462 I0.4068 J0.4068
G2 X764.5606 Y139.4664 I0.5315 J0.2201
G2 X764.6044 Y139.6865 I0.5753 J0
G2 X764.7291 Y139.8732 I0.5315 J-0.2202
G2 X764.9157 Y139.9979 I0.4068 J-0.4068
G2 X765.1359 Y140.0417 I0.2201 J-0.5315
G2 X765.356 Y139.9979 I0 J-0.5753
G2 X765.5426 Y139.8732 I-0.2201 J-0.5315
G2 X765.6673 Y139.6865 I-0.4068 J-0.4068
G2 X765.7111 Y139.4664 I-0.5315 J-0.2202
G2 X765.6673 Y139.2462 I-0.5753 J0
G1 X766.776 Y138.787 F250
G2 X766.3912 Y138.2111 I-1.6401 J0.6794 F250
G2 X765.8152 Y137.8262 I-1.2553 J1.2553
G2 X765.1359 Y137.6911 I-0.6794 J1.6402
G2 X764.4565 Y137.8262 I0 J1.7753
G2 X763.8805 Y138.2111 I0.6794 J1.6402
G2 X763.4957 Y138.787 I1.2553 J1.2553
G2 X763.3606 Y139.4664 I1.6401 J0.6794
G2 X763.4957 Y140.1458 I1.7753 J0
G2 X763.8805 Y140.7217 I1.6402 J-0.6794
G2 X764.4565 Y141.1065 I1.2553 J-1.2553
G2 X765.1359 Y141.2417 I0.6794 J-1.6401
G2 X765.8152 Y141.1065 I0 J-1.7753
G2 X766.3912 Y140.7217 I-0.6794 J-1.6401
G2 X766.776 Y140.1458 I-1.2553 J-1.2553
G2 X766.9111 Y139.4664 I-1.6402 J-0.6794
G2 X766.776 Y138.787 I-1.7753 J0
G1 X767.8847 Y138.3278 F250
G2 X767.2397 Y137.3625 I-2.7488 J1.1386 F250
G2 X766.2745 Y136.7176 I-2.1038 J2.1038
G2 X765.1359 Y136.4911 I-1.1386 J2.7488
G2 X763.9973 Y136.7176 I0 J2.9753
G2 X763.032 Y137.3625 I1.1386 J2.7488
G2 X762.3871 Y138.3278 I2.1038 J2.1039
G2 X762.1606 Y139.4664 I2.7488 J1.1386
G2 X762.3871 Y140.605 I2.9753 J0
G2 X763.032 Y141.5702 I2.7488 J-1.1386
G2 X763.9973 Y142.2152 I2.1039 J-2.1039
G2 X765.1359 Y142.4417 I1.1386 J-2.7488
G2 X766.2745 Y142.2152 I0 J-2.9753
G2 X767.2397 Y141.5702 I-1.1386 J-2.7488
G2 X767.8847 Y140.605 I-2.1038 J-2.1038
G2 X768.1111 Y139.4664 I-2.7488 J-1.1386
G2 X767.8847 Y138.3278 I-2.9753 J0

(drill 13)
G0 Z-20
G0 X765.1359 Y139.4664
G1 Z-47.5 F800
G1 Z-20 F800

(profile 14)
G0 Z-20
G0 X789.9856 Y395.6647
G1 Z-47.5 F800
G1 X790.1267 Y395.6647 F250
G2 X791.6267 Y394.1647 I0 J-1.5
G1 X791.6267 Y394.0236
G1 X791.6355 Y48.1868
G1 X791.6355 Y48.1867
G2 X790.5766 Y46.7531 I-1.5 J0
G2 X659.6818 Y15.9278 I-294.5535 J957.4508
G2 X525.7247 Y2.8935 I-163.9374 J989.9586
G2 X391.1854 Y7.9116 I-29.9683 J1002.5913
G2 X258.7439 Y30.8787 I104.251 J994.5197
G3 X195.5782 Y43.3734 I-227.795 J-985.6909
G3 X132.1807 Y51.7521 I-162.3407 J-984.3096
G3 X68.0578 Y56.0521 I-98.4279 J-987.5176
G3 X3.9894 Y56.186 I-34.0939 J-985.7149
G2 X2.4438 Y57.6853 I-0.0456 J1.4993
G1 X2.4438 Y57.6853
G1 X2.4525 Y394.0237
G1 X2.4527 Y394.1662
G2 X3.9527 Y395.6647 I1.5 J-0.0015
G1 X4.0938 Y395.6647
G1 X789.9856 Y395.6647
G0 Z-20
M5
M30
