(Generated by PartKam Version 0.05)

G21 G90 G40

(drill 1)
G0 Z-20
T0 M6
G17
M3
G0 X10.2616 Y43.7148
G1 Z-47.5 F800
G1 Z-20 F800

(drill 2)
G0 Z-20
G0 X10.2616 Y138.2186
G1 Z-47.5 F800
G1 Z-20 F800

(drill 3)
G0 Z-20
G0 X100.7084 Y110.3954
G1 Z-47.5 F800
G1 Z-20 F800

(drill 4)
G0 Z-20
G0 X104.7084 Y52.3954
G1 Z-47.5 F800
G1 Z-20 F800

(drill 5)
G0 Z-20
G0 X157.7084 Y52.3954
G1 Z-47.5 F800
G1 Z-20 F800

(drill 6)
G0 Z-20
G0 X153.7084 Y110.3954
G1 Z-47.5 F800
G1 Z-20 F800

(drill 7)
G0 Z-20
G0 X206.7084 Y110.3954
G1 Z-47.5 F800
G1 Z-20 F800

(drill 8)
G0 Z-20
G0 X210.7084 Y52.3954
G1 Z-47.5 F800
G1 Z-20 F800

(drill 9)
G0 Z-20
G0 X263.7084 Y52.3954
G1 Z-47.5 F800
G1 Z-20 F800

(drill 10)
G0 Z-20
G0 X259.7084 Y110.3954
G1 Z-47.5 F800
G1 Z-20 F800

(drill 11)
G0 Z-20
G0 X312.7986 Y153.4855
G1 Z-47.5 F800
G1 Z-20 F800

(drill 12)
G0 Z-20
G0 X312.7986 Y93.4855
G1 Z-47.5 F800
G1 Z-20 F800

(drill 13)
G0 Z-20
G0 X490.7986 Y93.4855
G1 Z-47.5 F800
G1 Z-20 F800

(drill 14)
G0 Z-20
G0 X490.7986 Y153.4855
G1 Z-47.5 F800
G1 Z-20 F800

(drill 15)
G0 Z-20
G0 X585.7986 Y117.4855
G1 Z-47.5 F800
G1 Z-20 F800

(drill 16)
G0 Z-20
G0 X585.7986 Y59.4855
G1 Z-47.5 F800
G1 Z-20 F800

(profile 17)
G0 Z-20
G0 X689.0603 Y37.8593
G1 Z-47.5 F250
G2 X689.8335 Y41.7463 I10.1572 J0 F250
G2 X692.0353 Y45.0415 I9.384 J-3.887
G2 X695.3305 Y47.2433 I7.1822 J-7.1822
G2 X699.2175 Y48.0165 I3.887 J-9.384
G2 X703.1045 Y47.2433 I0 J-10.1572
G2 X706.3997 Y45.0415 I-3.887 J-9.384
G2 X708.6015 Y41.7463 I-7.1822 J-7.1822
G2 X709.3747 Y37.8593 I-9.384 J-3.887
G2 X708.6015 Y33.9724 I-10.1572 J0
G2 X706.3997 Y30.6771 I-9.384 J3.887
G2 X703.1045 Y28.4753 I-7.1822 J7.1822
G2 X699.2175 Y27.7022 I-3.887 J9.384
G2 X695.3305 Y28.4753 I0 J10.1572
G2 X692.0353 Y30.6771 I3.887 J9.384
G2 X689.8335 Y33.9724 I7.1822 J7.1822
G2 X689.0603 Y37.8593 I9.384 J3.887

(drill 18)
G0 Z-20
G0 X707.3865 Y78.4583
G1 Z-47.5 F800
G1 Z-20 F800

(drill 17)
G0 Z-20
G0 X691.0501 Y78.5119
G1 Z-47.5 F800
G1 Z-20 F800

(drill 18)
G0 Z-20
G0 X691.1037 Y98.4905
G1 Z-47.5 F800
G1 Z-20 F800

(drill 19)
G0 Z-20
G0 X707.3865 Y98.5441
G1 Z-47.5 F800
G1 Z-20 F800

(profile 20)
G0 Z-20
G0 X691.0128 Y98.5653
G1 Z-47.5 F250
G1 X707.4222 Y98.5653 F250
G1 X707.4222 Y78.4058
G1 X691.0128 Y78.4058
G1 X691.0128 Y98.5653

(profile 21)
G0 Z-20
G0 X703.8962 Y132.8408
G1 Z-47.5 F250
G2 X699.2175 Y131.9102 I-4.6787 J11.2953 F250
G2 X694.5388 Y132.8408 I0 J12.226
G2 X690.5724 Y135.4911 I4.6787 J11.2954
G2 X687.9221 Y139.4575 I8.6451 J8.6451
G2 X686.9915 Y144.1362 I11.2954 J4.6787
G2 X687.9221 Y148.8149 I12.226 J0
G2 X690.5724 Y152.7813 I11.2954 J-4.6787
G2 X694.5388 Y155.4316 I8.6451 J-8.6451
G2 X699.2175 Y156.3622 I4.6787 J-11.2954
G2 X703.8962 Y155.4316 I0 J-12.226
G2 X707.8626 Y152.7813 I-4.6787 J-11.2954
G2 X710.5129 Y148.8149 I-8.6451 J-8.6451
G2 X711.4435 Y144.1362 I-11.2953 J-4.6787
G2 X710.5129 Y139.4575 I-12.226 J0
G2 X707.8626 Y135.4911 I-11.2954 J4.6787
G2 X703.8962 Y132.8408 I-8.6451 J8.6451

(profile 22)
G0 Z-20

G0 X732.8538 Y182.5047
G1 Z-47.5 F250
G1 X732.8538 Y3.5407
G1 X3.3538 Y3.5407
G1 X3.3538 Y180.5047
G1 X732.8538 Y182.5047
G0 Z-20
M5
M30
