(Generated by PartKam Version 0.05)

G21 G90 G40

(drill 1)
G0 Z-20
T0 M6
G17
M3
G0 X121.6017 Y66.9369
G1 Z-47.5 F800
G1 Z-20 F800

(drill 3)
G0 Z-20
G0 X121.6017 Y171.7634
G1 Z-47.5 F800
G1 Z-20 F800

(drill 5)
G0 Z-20
G0 X121.6017 Y261.5899
G1 Z-47.5 F800
G1 Z-20 F800

(drill 7)
G0 Z-20
G0 X437.6335 Y261.5899
G1 Z-47.5 F800
G1 Z-20 F800

(drill 9)
G0 Z-20
G0 X468.3765 Y225.5751
G1 Z-47.5 F800
G1 Z-20 F800

(profile 11)
G0 Z-20
G0 X513.3059 Y155.9464
G1 Z-47.5 F250
G3 X513.0255 Y155.973 I-0.2809 J-1.4735 F250
G2 X504.096 Y157.7522 I0.0081 J23.3384
G2 X496.5247 Y162.8136 I8.9418 J21.5691
G2 X491.4656 Y170.3868 I16.5127 J16.5073
G2 X489.6894 Y179.3173 I21.563 J8.9306
G2 X491.4658 Y188.2466 I23.3307 J0
G2 X496.5244 Y195.8163 I21.5553 J-8.9296
G2 X504.0942 Y200.8743 I16.5045 J-16.5072
G2 X513.0255 Y202.6529 I8.9395 J-21.5766
G3 X513.3059 Y202.6794 I-0.0005 J1.5
G1 X556.2946 Y202.6794
G3 X556.5749 Y202.6529 I0.2809 J1.4735
G2 X565.5062 Y200.8743 I-0.0081 J-23.3551
G2 X573.076 Y195.8164 I-8.9347 J-21.5652
G2 X578.1346 Y188.2466 I-16.4967 J-16.4994
G2 X579.911 Y179.3173 I-21.5544 J-8.9293
G2 X578.1348 Y170.3868 I-23.3392 J0
G2 X573.0757 Y162.8137 I-21.5718 J8.9342
G2 X565.5045 Y157.7522 I-16.5131 J16.5077
G2 X556.5749 Y155.973 I-8.9377 J21.5593
G3 X556.2946 Y155.9464 I0.0005 J-1.5
G1 X513.3059 Y155.9464

(drill 12)
G0 Z-20
G0 X437.6335 Y109.2159
G1 Z-47.5 F800
G1 Z-20 F800

(drill 14)
G0 Z-20
G0 X623.9066 Y32.0409
G1 Z-47.5 F800
G1 Z-20 F800

(drill 16)
G0 Z-20
G0 X623.9066 Y146.8154
G1 Z-47.5 F800
G1 Z-20 F800

(drill 18)
G0 Z-20
G0 X593.2458 Y225.5751
G1 Z-47.5 F800
G1 Z-20 F800

(drill 20)
G0 Z-20
G0 X623.9066 Y261.5899
G1 Z-47.5 F800
G1 Z-20 F800

(drill 22)
G0 Z-20
G0 X650.706 Y225.5751
G1 Z-47.5 F800
G1 Z-20 F800

G0 X732.7552 Y287.9235

G1 Z-47.5 F250

G1 Y5.6571

G1 X4.4887

G1 Y287.9235

G1 X732.7552

G0 Z-20
M5
M30
