(Generated by PartKam Version 0.05)

G21 G90 G40

(profile 1)
G0 Z-20
T0 M6
G17
M3
G0 X347.9347 Y7.1458
G1 Z-47.5 F250
G1 X347.9486 Y34.8829 F250
G1 X347.9486 Y34.9128
G2 X349.4993 Y42.7128 I20.3929 J0
G2 X353.9158 Y49.3274 I18.846 J-7.8016
G2 X360.5272 Y53.7489 I14.417 J-14.4037
G2 X368.3221 Y55.3009 I7.7948 J-18.7993
G2 X376.117 Y53.7489 I0 J-20.3516
G2 X382.7284 Y49.3274 I-7.8055 J-18.8251
G2 X387.1449 Y42.7128 I-14.4294 J-14.4161
G2 X388.6956 Y34.9128 I-18.8423 J-7.8
G3 X388.7102 Y34.7035 I1.5 J0
G1 X388.7102 Y7.1458
G1 X347.9347 Y7.1458

(pocket 2)
G0 Z-20

(G2 X492.3849 Y167.6484 I0 J11.2067)
G0 X491.9256 Y166.5398
G1 Z-40.5 F250
G1 X491.9256 Y166.5398 F250
G2 X487.9006 Y169.2292 I4.7478 J11.4622F250
G2 X485.2112 Y173.2542 I8.7728 J8.7728
G2 X484.2668 Y178.002 I11.4622 J4.7478
G2 X485.2112 Y182.7498 I12.4067 J0
G2 X487.9006 Y186.7748 I11.4623 J-4.7478
G2 X491.9256 Y189.4642 I8.7728 J-8.7728
G2 X496.6735 Y190.4086 I4.7478 J-11.4623
G2 X501.4213 Y189.4642 I0 J-12.4065
G2 X505.4463 Y186.7748 I-4.7478 J-11.4622
G2 X508.1357 Y182.7498 I-8.7729 J-8.7728
G2 X509.0801 Y178.002 I-11.4623 J-4.7478
G2 X508.1357 Y173.2542 I-12.4066 J0
G2 X505.4463 Y169.2292 I-11.4622 J4.7478
G2 X501.4213 Y166.5398 I-8.7728 J8.7728
G2 X496.6735 Y165.5954 I-4.7478 J11.4622
G2 X491.9256 Y166.5398 I0 J12.4067
G1 X491.4664 Y165.4311 F250
G2 X487.0521 Y168.3807 I5.207 J12.5709 F250
G2 X484.1026 Y172.795 I9.6213 J9.6213
G2 X483.0668 Y178.002 I12.5709 J5.207
G2 X484.1026 Y183.209 I13.6067 J0
G2 X487.0521 Y187.6233 I12.5709 J-5.207
G2 X491.4664 Y190.5729 I9.6213 J-9.6213
G2 X496.6735 Y191.6086 I5.2071 J-12.5709
G2 X501.8805 Y190.5729 I0 J-13.6065
G2 X506.2948 Y187.6233 I-5.2071 J-12.5709
G2 X509.2443 Y183.209 I-9.6214 J-9.6214
G2 X510.2801 Y178.002 I-12.5709 J-5.207
G2 X509.2443 Y172.795 I-13.6066 J0
G2 X506.2948 Y168.3806 I-12.5709 J5.207
G2 X501.8805 Y165.4311 I-9.6213 J9.6213
G2 X496.6735 Y164.3954 I-5.207 J12.5708
G2 X491.4664 Y165.4311 I0 J13.6067
G1 X491.0072 Y164.3225 F250
G2 X486.2036 Y167.5321 I5.6662 J13.6795 F250
G2 X482.9939 Y172.3357 I10.4698 J10.4698
G2 X481.8668 Y178.002 I13.6795 J5.6663
G2 X482.9939 Y183.6682 I14.8067 J0
G2 X486.2036 Y188.4719 I13.6796 J-5.6663
G2 X491.0072 Y191.6816 I10.4699 J-10.4699
G2 X496.6735 Y192.8086 I5.6663 J-13.6796
G2 X502.3397 Y191.6816 I0 J-14.8065
G2 X507.1433 Y188.4719 I-5.6663 J-13.6796
G2 X510.353 Y183.6682 I-10.4699 J-10.4699
G2 X511.4801 Y178.002 I-13.6796 J-5.6663
G2 X510.353 Y172.3357 I-14.8066 J0
G2 X507.1433 Y167.5321 I-13.6795 J5.6663
G2 X502.3397 Y164.3224 I-10.4699 J10.4699
G2 X496.6735 Y163.1954 I-5.6662 J13.6795
G2 X491.0072 Y164.3225 I0 J14.8067
G1 X490.548 Y163.2138 F250
G2 X485.355 Y166.6836 I6.1255 J14.7882 F250
G2 X481.8852 Y171.8765 I11.3184 J11.3184
G2 X480.6668 Y178.002 I14.7882 J6.1255
G2 X481.8852 Y184.1275 I16.0067 J0
G2 X485.3551 Y189.3204 I14.7882 J-6.1255
G2 X490.548 Y192.7902 I11.3184 J-11.3184
G2 X496.6735 Y194.0086 I6.1255 J-14.7882
G2 X502.7989 Y192.7902 I0 J-16.0065
G2 X507.9919 Y189.3204 I-6.1255 J-14.7882
G2 X511.4617 Y184.1275 I-11.3184 J-11.3184
G2 X512.6801 Y178.002 I-14.7882 J-6.1255
G2 X511.4617 Y171.8765 I-16.0066 J0
G2 X507.9919 Y166.6836 I-14.7882 J6.1255
G2 X502.7989 Y163.2138 I-11.3184 J11.3184
G2 X496.6735 Y161.9954 I-6.1255 J14.7882
G2 X490.548 Y163.2138 I0 J16.0067
G1 X490.0888 Y162.1051 F250
G2 X484.5065 Y165.8351 I6.5847 J15.8968 F250
G2 X480.7766 Y171.4173 I12.1669 J12.1669
G2 X479.4668 Y178.002 I15.8969 J6.5847
G2 X480.7766 Y184.5867 I17.2067 J0
G2 X484.5065 Y190.1689 I15.8969 J-6.5847
G2 X490.0888 Y193.8989 I12.1669 J-12.1669
G2 X496.6735 Y195.2086 I6.5847 J-15.8969
G2 X503.2581 Y193.8989 I0 J-17.2065
G2 X508.8404 Y190.1689 I-6.5847 J-15.8969
G2 X512.5703 Y184.5867 I-12.167 J-12.167
G2 X513.8801 Y178.002 I-15.8969 J-6.5847
G2 X512.5703 Y171.4173 I-17.2066 J0
G2 X508.8404 Y165.8351 I-15.8969 J6.5847
G2 X503.2582 Y162.1051 I-12.1669 J12.1669
G2 X496.6735 Y160.7954 I-6.5847 J15.8968
G2 X490.0888 Y162.1051 I0 J17.2067
G1 X489.6295 Y160.9965 F250
G2 X483.658 Y164.9865 I7.0439 J17.0055F250
G2 X479.6679 Y170.9581 I13.0154 J13.0154
G2 X478.2668 Y178.002 I17.0055 J7.0439
G2 X479.6679 Y185.0459 I18.4067 J0
G2 X483.658 Y191.0175 I17.0055 J-7.0439
G2 X489.6295 Y195.0075 I13.0155 J-13.0154
G2 X496.6735 Y196.4086 I7.0439 J-17.0056
G2 X503.7174 Y195.0075 I0 J-18.4065
G2 X509.6889 Y191.0175 I-7.0439 J-17.0055
G2 X513.679 Y185.0459 I-13.0155 J-13.0155
G2 X515.0801 Y178.002 I-17.0055 J-7.0439
G2 X513.679 Y170.9581 I-18.4066 J0
G2 X509.6889 Y164.9865 I-17.0055 J7.0439
G2 X503.7174 Y160.9965 I-13.0155 J13.0155
G2 X496.6735 Y159.5954 I-7.0439 J17.0055
G2 X489.6295 Y160.9965 I0 J18.4067

(profile 3)
G0 Z-20
G0 X5.0967 Y4.1416
G1 Z-47.5 F250
G2 X3.5967 Y5.6416 I0 J1.5 F250
G1 X3.5967 Y207.0966
G2 X5.0967 Y208.5966 I1.5 J0
G1 X731.5518 Y208.5966
G2 X733.0518 Y207.0966 I0 J-1.5
G1 X733.0518 Y5.6416
G2 X731.5518 Y4.1416 I-1.5 J0
G1 X5.0967 Y4.1416
G0 Z-20
M5
M30
