(Generated by PartKam Version 0.05)

G21 G90 G40

(profile 1)
G0 Z-20
T0 M6
G17
M3
G0 X372.0455 Y36.1064
G1 Z-47.5 F250
G2 X369.5131 Y37.7985 I2.9871 J7.2115 F250
G2 X367.8211 Y40.3308 I5.5194 J5.5194
G2 X367.2269 Y43.3179 I7.2116 J2.9871
G2 X367.8211 Y46.3051 I7.8057 J0
G2 X369.5131 Y48.8374 I7.2115 J-2.9871
G2 X372.0455 Y50.5295 I5.5194 J-5.5194
G2 X375.0326 Y51.1236 I2.9871 J-7.2116
G2 X378.0197 Y50.5295 I0 J-7.8055
G2 X380.552 Y48.8374 I-2.9871 J-7.2115
G2 X382.2441 Y46.305 I-5.5195 J-5.5195
G2 X382.8382 Y43.3179 I-7.2115 J-2.9871
G2 X382.2441 Y40.3308 I-7.8057 J0
G2 X380.552 Y37.7985 I-7.2116 J2.9871
G2 X378.0197 Y36.1064 I-5.5195 J5.5194
G2 X375.0326 Y35.5122 I-2.9871 J7.2113
G2 X372.0455 Y36.1064 I0 J7.8058

(profile 2)
G0 Z-20
G0 X738.1075 Y509.6926
G1 Z-47.5 F250
G2 X739.6075 Y508.1926 I0 J-1.5 F250
G1 X739.6075 Y11.4432
G2 X738.1075 Y9.9432 I-1.5 J0
G1 X12.6575 Y9.9432
G2 X11.1575 Y11.4432 I0 J1.5
G1 X11.1575 Y508.1926
G2 X12.6575 Y509.6926 I1.5 J0
G1 X738.1075 Y509.6926
G0 Z-20
M5
M30
