(Generated by PartKam Version 0.05)

G21 G90 G40

(drill 1)
G0 Z-20
T0 M6
G17
M3

(drill 24)
G0 Z-20
G0 X614.8576 Y259.9364
G1 Z-47.5 F800
G1 Z-20 F800

(drill 22)
G0 Z-20
G0 X614.8576 Y170.1099
G1 Z-47.5 F800
G1 Z-20 F800

(drill 20)
G0 Z-20
G0 X614.8576 Y65.2834
G1 Z-47.5 F800
G1 Z-20 F800

(drill 18)
G0 Z-20
G0 X298.8258 Y107.5624
G1 Z-47.5 F800
G1 Z-20 F800

(drill 16)
G0 Z-20
G0 X268.0827 Y223.9215
G1 Z-47.5 F800
G1 Z-20 F800

(drill 14)
G0 Z-20
G0 X298.8258 Y259.9364
G1 Z-47.5 F800
G1 Z-20 F800

(drill 12)
G0 Z-20
G0 X112.5527 Y259.9364
G1 Z-47.5 F800
G1 Z-20 F800

(drill 8)
G0 Z-20
G0 X85.7532 Y223.9215
G1 Z-47.5 F800
G1 Z-20 F800

(drill 6)
G0 Z-20
G0 X143.2134 Y223.9215
G1 Z-47.5 F800
G1 Z-20 F800

(profile 5 - Scanner)
G0 Z-20
G0 X183.491 Y146.2543
G1 Z-47.5 F800
G1 Z-20 F800

(drill 3)
G0 Z-20
G0 X112.5527 Y145.1619
G1 Z-47.5 F800
G1 Z-20 F800

G0 X112.5527 Y30.3874
G1 Z-47.5 F800
G1 Z-20 F800

(------------------------------------)

(profile 26)
G0 Z-20
G0 X5.5262 Y4.0289
G1 Z-47.5 F500
G2 X4.0262 Y5.5289 I0 J1.5 F500
G1 X4.0262 Y284.7954
G2 X5.5262 Y286.2954 I1.5 J0
G1 X730.7927 Y286.2954
G2 X732.2927 Y284.7954 I0 J-1.5
G1 X732.2927 Y5.5289
G2 X730.7927 Y4.0289 I-1.5 J0
G1 X5.5262 Y4.0289
G0 Z-20

M5
M30
