(Generated by PartKam Version 0.05)

G21 G90 G40

(pocket 1)
G0 Z-20
T0 M6
G17
M3
G0 X416.1521 Y189.7629
G1 Z-40.5 F250
G1 X416.1521 Y189.288 F250
G1 X321.6773 Y189.288
G1 X321.6773 Y189.7629
G1 X416.1521 Y189.7629
G1 X417.3521 Y190.9629 F250
G1 X417.3521 Y188.088 F250
G1 X320.4773 Y188.088
G1 X320.4773 Y190.9629
G1 X417.3521 Y190.9629

(profile 2)
G0 Z-20
G0 X223.4526 Y342.332
G1 Z-47.5 F250
G2 X222.0523 Y349.3716 I16.9949 J7.0396 F250
G2 X223.4526 Y356.4112 I18.3951 J0
G2 X227.4404 Y362.3792 I16.9954 J-7.0399
G2 X233.4084 Y366.3669 I13.0078 J-13.0081
G2 X240.4482 Y367.7672 I7.0397 J-16.9956
G2 X247.4878 Y366.3669 I0 J-18.3956
G2 X253.4558 Y362.3792 I-7.0396 J-16.9952
G2 X257.4434 Y356.4113 I-13.0076 J-13.0076
G2 X258.8437 Y349.3716 I-16.9954 J-7.0397
G2 X257.4434 Y342.3319 I-18.3957 J0
G2 X253.4558 Y336.364 I-16.9953 J7.0396
G2 X247.4878 Y332.3763 I-13.0076 J13.0075
G2 X240.4482 Y330.976 I-7.0397 J16.9953
G2 X233.4084 Y332.3763 I0 J18.3958
G2 X227.4404 Y336.364 I7.0398 J16.9957
G2 X223.4526 Y342.332 I13.0076 J13.0079

(profile 3)
G0 Z-20
G0 X732.1577 Y380.7129
G1 Z-47.5 F250
G2 X733.6577 Y379.2129 I0 J-1.5 F250
G1 X733.6577 Y57.5779
G2 X732.1577 Y56.0779 I-1.5 J0
G3 X672.0781 Y54.4496 I-3.0367 J-997.0051
G3 X612.2045 Y49.2044 I57.0493 J-995.5667
G3 X552.7759 Y40.3658 I116.948 J-990.5342
G3 X493.9687 Y27.9615 I176.4875 J-982.3126
G1 X493.9494 Y27.957
G2 X372.2197 Y7.9179 I-223.1466 J975.7803
G2 X248.9499 Y3.0056 I-101.4162 J995.8125
G2 X126.0122 Y13.2946 I21.8536 J1000.7234
G2 X5.2738 Y38.6285 I144.7915 J990.4356
G2 X4.1717 Y40.0748 I0.3979 J1.4463
G1 X4.1717 Y379.2129
G2 X5.6717 Y380.7129 I1.5 J0
G1 X732.1577 Y380.7129
G0 Z-20
M5
M30
